; generated by Slic3r 1.1.7 on 2015-02-23 at 20:11:22

; perimeters extrusion width = 0.50mm
; infill extrusion width = 0.67mm
; solid infill extrusion width = 0.67mm
; top infill extrusion width = 0.67mm

G21 ; set units to millimeters
M107
M104 S190 ; set temperature
G28 ; home all axes
M109 S190 ; wait for temperature to be reached
G90 ; use absolute coordinates
G92 E0
M82 ; use absolute distances for extrusion
G1 F2400.000 E-1.20000
G92 E0
G1 Z0.100 F7800.000
G1 X84.461 Y69.615 F7800.000
G1 E1.20000 F2400.000
G1 X85.481 Y68.736 E1.22697 F1800.000
G1 X86.636 Y68.047 E1.25391
G1 X87.896 Y67.568 E1.28091
G1 X89.213 Y67.316 E1.30777
G1 X90.000 Y67.271 E1.32355
G1 X110.558 Y67.296 E1.73531
G1 X111.894 Y67.511 E1.76240 F1800.000
G1 X113.165 Y67.953 E1.78936
G1 X114.341 Y68.610 E1.81634
G1 X115.384 Y69.461 E1.84331
G1 X116.265 Y70.481 E1.87028
G1 X116.954 Y71.637 E1.89724
G1 X117.433 Y72.896 E1.92423
G1 X117.685 Y74.218 E1.95119
G1 X117.729 Y75.000 E1.96687
G1 X117.704 Y95.564 E2.37874
G1 X117.489 Y96.894 E2.40572
G1 X117.046 Y98.167 E2.43272
G1 X116.389 Y99.341 E2.45965
G1 X115.539 Y100.385 E2.48662
G1 X114.519 Y101.265 E2.51359
G1 X113.363 Y101.954 E2.54055
G1 X112.105 Y102.432 E2.56752
G1 X110.782 Y102.685 E2.59450
G1 X110.000 Y102.729 E2.61018
G1 X89.434 Y102.704 E3.02208
G1 X88.106 Y102.489 E3.04903
G1 X86.838 Y102.048 E3.07592
G1 X85.665 Y101.394 E3.10281
G1 X84.615 Y100.539 E3.12994
G1 X83.736 Y99.520 E3.15689
G1 X83.046 Y98.363 E3.18387
G1 X82.569 Y97.109 E3.21074
G1 X82.315 Y95.781 E3.23783
G1 X82.271 Y95.000 E3.25349
G1 X82.295 Y74.447 E3.66515
G1 X82.511 Y73.106 E3.69234
G1 X82.952 Y71.838 E3.71923
G1 X83.610 Y70.660 E3.74625
G1 X84.424 Y69.662 E3.77205
G1 F2400.000 E2.57205
G92 E0
G1 X88.876 Y74.989 F7800.000
G1 E1.20000 F2400.000
G1 X88.892 Y74.805 E1.20371 F1800.000
G1 X88.947 Y74.605 E1.20785
G1 X89.032 Y74.429 E1.21178
G1 X89.138 Y74.277 E1.21548
G1 X89.269 Y74.146 E1.21919
G1 X89.438 Y74.026 E1.22334
G1 X89.615 Y73.943 E1.22726
G1 X89.805 Y73.892 E1.23119
G1 X90.005 Y73.875 E1.23523
G1 X109.995 Y73.875 E1.63558
G1 X110.195 Y73.892 E1.63962
G1 X110.385 Y73.943 E1.64355
G1 X110.562 Y74.026 E1.64747
G1 X110.723 Y74.138 E1.65140
G1 X110.868 Y74.286 E1.65554
G1 X110.974 Y74.438 E1.65925
G1 X111.053 Y74.605 E1.66296
G1 X111.108 Y74.805 E1.66710
G1 X111.125 Y75.005 E1.67114
G1 X111.125 Y94.995 E2.07149
G1 X111.108 Y95.195 E2.07553
G1 X111.057 Y95.385 E2.07946
G1 X110.974 Y95.562 E2.08338
G1 X110.862 Y95.723 E2.08731
G1 X110.714 Y95.868 E2.09145
G1 X110.562 Y95.974 E2.09516
G1 X110.395 Y96.053 E2.09887
G1 X110.195 Y96.108 E2.10301
G1 X109.995 Y96.125 E2.10705
G1 X90.005 Y96.125 E2.50741
G1 X89.805 Y96.108 E2.51144
G1 X89.615 Y96.057 E2.51537
G1 X89.438 Y95.974 E2.51930
G1 X89.277 Y95.862 E2.52322
G1 X89.132 Y95.714 E2.52736
G1 X89.026 Y95.562 E2.53107
G1 X88.947 Y95.395 E2.53478
G1 X88.892 Y95.195 E2.53893
G1 X88.875 Y94.995 E2.54296
G1 X88.876 Y74.989 E2.94364
G1 F2400.000 E1.74364
G92 E0
G1 Z0.300 F7800.000
G1 E1.20000 F2400.000
G1 X88.892 Y74.805 E1.20742 F1800.000
G1 X88.947 Y74.605 E1.21570
G1 X89.032 Y74.429 E1.22355
G1 X89.138 Y74.277 E1.23097
G1 X89.269 Y74.146 E1.23839
G1 X89.438 Y74.026 E1.24667
G1 X89.615 Y73.943 E1.25453
G1 X89.805 Y73.892 E1.26238
G1 X90.005 Y73.875 E1.27045
G1 X109.995 Y73.875 E2.07117
G1 X110.195 Y73.892 E2.07924
G1 X110.385 Y73.943 E2.08709
G1 X110.562 Y74.026 E2.09494
G1 X110.723 Y74.138 E2.10280
G1 X110.868 Y74.286 E2.11108
G1 X110.974 Y74.438 E2.11850
G1 X111.053 Y74.605 E2.12592
G1 X111.108 Y74.805 E2.13420
G1 X111.125 Y75.005 E2.14228
G1 X111.125 Y94.995 E2.94299
G1 X111.108 Y95.195 E2.95106
G1 X111.057 Y95.385 E2.95891
G1 X110.974 Y95.562 E2.96677
G1 X110.862 Y95.723 E2.97462
G1 X110.714 Y95.868 E2.98291
G1 X110.562 Y95.974 E2.99032
G1 X110.395 Y96.053 E2.99774
G1 X110.195 Y96.108 E3.00603
G1 X109.995 Y96.125 E3.01410
G1 X90.005 Y96.125 E3.81481
G1 X89.805 Y96.108 E3.82288
G1 X89.615 Y96.057 E3.83074
G1 X89.438 Y95.974 E3.83859
G1 X89.277 Y95.862 E3.84644
G1 X89.132 Y95.714 E3.85473
G1 X89.026 Y95.562 E3.86215
G1 X88.947 Y95.395 E3.86957
G1 X88.892 Y95.195 E3.87785
G1 X88.875 Y94.995 E3.88592
G1 X88.876 Y74.989 E4.68729
M106 S255
G1 F2400.000 E3.48729
G92 E0
G1 Z0.500 F7800.000
G1 X88.876 Y74.989 F7800.000
G1 E1.20000 F2400.000
G1 X88.892 Y74.805 E1.20742 F1800.000
G1 X88.947 Y74.605 E1.21570
G1 X89.026 Y74.438 E1.22312
G1 X89.128 Y74.291 E1.23026
G1 X89.269 Y74.146 E1.23838
G1 X89.438 Y74.026 E1.24667
G1 X89.615 Y73.943 E1.25452
G1 X89.805 Y73.892 E1.26238
G1 X90.005 Y73.875 E1.27045
G1 X109.995 Y73.875 E2.07116
G1 X110.195 Y73.892 E2.07923
G1 X110.385 Y73.943 E2.08709
G1 X110.562 Y74.026 E2.09494
G1 X110.723 Y74.138 E2.10279
G1 X110.868 Y74.286 E2.11108
G1 X110.974 Y74.438 E2.11850
G1 X111.053 Y74.605 E2.12591
G1 X111.108 Y74.805 E2.13420
G1 X111.125 Y75.005 E2.14227
G1 X111.125 Y94.995 E2.94298
G1 X111.108 Y95.195 E2.95106
G1 X111.057 Y95.385 E2.95891
G1 X110.974 Y95.562 E2.96676
G1 X110.862 Y95.723 E2.97462
G1 X110.714 Y95.868 E2.98290
G1 X110.562 Y95.974 E2.99032
G1 X110.395 Y96.053 E2.99774
G1 X110.195 Y96.108 E3.00602
G1 X109.995 Y96.125 E3.01410
G1 X90.005 Y96.125 E3.81481
G1 X89.805 Y96.108 E3.82288
G1 X89.615 Y96.057 E3.83073
G1 X89.438 Y95.974 E3.83859
G1 X89.277 Y95.862 E3.84644
G1 X89.132 Y95.714 E3.85473
G1 X89.026 Y95.562 E3.86214
G1 X88.947 Y95.395 E3.86956
G1 X88.892 Y95.195 E3.87785
G1 X88.875 Y94.995 E3.88592
G1 X88.876 Y74.989 E4.68729
G1 F2400.000 E3.48729
G92 E0
G1 Z0.700 F7800.000
G1 X88.875 Y74.998 F7800.000
G1 E1.20000 F2400.000
G1 X88.892 Y74.805 E1.20777 F1800.000
G1 X88.947 Y74.605 E1.21605
G1 X89.026 Y74.438 E1.22347
G1 X89.126 Y74.294 E1.23047
G1 X89.269 Y74.146 E1.23873
G1 X89.434 Y74.028 E1.24683
G1 X89.615 Y73.943 E1.25487
G1 X89.805 Y73.892 E1.26272
G1 X90.005 Y73.875 E1.27080
G1 X109.995 Y73.875 E2.07151
G1 X110.195 Y73.892 E2.07958
G1 X110.385 Y73.943 E2.08744
G1 X110.562 Y74.026 E2.09529
G1 X110.725 Y74.140 E2.10323
G1 X110.868 Y74.286 E2.11143
G1 X110.974 Y74.438 E2.11884
G1 X111.053 Y74.605 E2.12626
G1 X111.108 Y74.805 E2.13455
G1 X111.125 Y75.005 E2.14262
G1 X111.125 Y94.995 E2.94333
G1 X111.108 Y95.195 E2.95140
G1 X111.057 Y95.385 E2.95926
G1 X110.974 Y95.562 E2.96711
G1 X110.862 Y95.723 E2.97497
G1 X110.714 Y95.868 E2.98325
G1 X110.562 Y95.974 E2.99067
G1 X110.392 Y96.054 E2.99821
G1 X110.195 Y96.108 E3.00638
G1 X109.995 Y96.125 E3.01445
G1 X90.005 Y96.125 E3.81516
G1 X89.805 Y96.108 E3.82323
G1 X89.615 Y96.057 E3.83109
G1 X89.438 Y95.974 E3.83894
G1 X89.277 Y95.862 E3.84680
G1 X89.132 Y95.714 E3.85508
G1 X89.026 Y95.562 E3.86250
G1 X88.947 Y95.395 E3.86992
G1 X88.892 Y95.195 E3.87820
G1 X88.875 Y94.995 E3.88627
G1 X88.875 Y74.998 E4.68729
G1 F2400.000 E3.48729
G92 E0
G1 Z0.900 F7800.000
G1 X88.876 Y74.993 F7800.000
G1 E1.20000 F2400.000
G1 X88.892 Y74.805 E1.20759 F1800.000
G1 X88.947 Y74.605 E1.21588
G1 X89.026 Y74.438 E1.22329
G1 X89.132 Y74.286 E1.23071
G1 X89.269 Y74.146 E1.23856
G1 X89.438 Y74.026 E1.24685
G1 X89.615 Y73.943 E1.25470
G1 X89.805 Y73.892 E1.26255
G1 X90.005 Y73.875 E1.27063
G1 X109.995 Y73.875 E2.07134
G1 X110.195 Y73.892 E2.07941
G1 X110.385 Y73.943 E2.08727
G1 X110.562 Y74.026 E2.09512
G1 X110.723 Y74.138 E2.10297
G1 X110.868 Y74.286 E2.11126
G1 X110.974 Y74.438 E2.11867
G1 X111.053 Y74.605 E2.12609
G1 X111.108 Y74.805 E2.13438
G1 X111.125 Y75.005 E2.14245
G1 X111.125 Y94.995 E2.94316
G1 X111.108 Y95.195 E2.95123
G1 X111.057 Y95.385 E2.95909
G1 X110.974 Y95.562 E2.96694
G1 X110.862 Y95.723 E2.97480
G1 X110.714 Y95.868 E2.98308
G1 X110.562 Y95.974 E2.99050
G1 X110.395 Y96.053 E2.99792
G1 X110.195 Y96.108 E3.00620
G1 X109.995 Y96.125 E3.01427
G1 X90.005 Y96.125 E3.81499
G1 X89.805 Y96.108 E3.82306
G1 X89.615 Y96.057 E3.83091
G1 X89.438 Y95.974 E3.83877
G1 X89.272 Y95.857 E3.84688
G1 X89.132 Y95.714 E3.85490
G1 X89.026 Y95.562 E3.86232
G1 X88.947 Y95.395 E3.86974
G1 X88.892 Y95.195 E3.87802
G1 X88.875 Y94.995 E3.88609
G1 X88.876 Y74.993 E4.68729
G1 F2400.000 E3.48729
G92 E0
G1 Z1.100 F7800.000
G1 X88.876 Y74.989 F7800.000
G1 E1.20000 F2400.000
G1 X88.892 Y74.805 E1.20742 F1800.000
G1 X88.947 Y74.605 E1.21570
G1 X89.032 Y74.429 E1.22355
G1 X89.138 Y74.277 E1.23097
G1 X89.269 Y74.146 E1.23839
G1 X89.438 Y74.026 E1.24667
G1 X89.615 Y73.943 E1.25453
G1 X89.805 Y73.892 E1.26238
G1 X90.005 Y73.875 E1.27045
G1 X109.995 Y73.875 E2.07117
G1 X110.195 Y73.892 E2.07924
G1 X110.385 Y73.943 E2.08709
G1 X110.562 Y74.026 E2.09494
G1 X110.723 Y74.138 E2.10280
G1 X110.868 Y74.286 E2.11108
G1 X110.974 Y74.438 E2.11850
G1 X111.053 Y74.605 E2.12592
G1 X111.108 Y74.805 E2.13420
G1 X111.125 Y75.005 E2.14228
G1 X111.125 Y94.995 E2.94299
G1 X111.108 Y95.195 E2.95106
G1 X111.057 Y95.385 E2.95891
G1 X110.974 Y95.562 E2.96677
G1 X110.862 Y95.723 E2.97462
G1 X110.714 Y95.868 E2.98291
G1 X110.562 Y95.974 E2.99032
G1 X110.385 Y96.057 E2.99818
G1 X110.195 Y96.108 E3.00603
G1 X109.995 Y96.125 E3.01411
G1 X90.005 Y96.125 E3.81482
G1 X89.805 Y96.108 E3.82289
G1 X89.615 Y96.057 E3.83074
G1 X89.438 Y95.974 E3.83860
G1 X89.277 Y95.862 E3.84645
G1 X89.132 Y95.714 E3.85474
G1 X89.026 Y95.562 E3.86215
G1 X88.943 Y95.385 E3.87001
G1 X88.892 Y95.195 E3.87786
G1 X88.875 Y94.995 E3.88594
G1 X88.876 Y74.989 E4.68730
G1 F2400.000 E3.48730
G92 E0
G1 Z1.300 F7800.000
G1 X88.876 Y74.989 F7800.000
G1 E1.20000 F2400.000
G1 X88.892 Y74.805 E1.20742 F1800.000
G1 X88.947 Y74.605 E1.21570
G1 X89.032 Y74.429 E1.22355
G1 X89.138 Y74.277 E1.23097
G1 X89.269 Y74.146 E1.23839
G1 X89.438 Y74.026 E1.24667
G1 X89.615 Y73.943 E1.25453
G1 X89.805 Y73.892 E1.26238
G1 X90.005 Y73.875 E1.27045
G1 X109.995 Y73.875 E2.07116
G1 X110.195 Y73.892 E2.07924
G1 X110.385 Y73.943 E2.08709
G1 X110.562 Y74.026 E2.09494
G1 X110.723 Y74.138 E2.10280
G1 X110.868 Y74.286 E2.11108
G1 X110.974 Y74.438 E2.11850
G1 X111.053 Y74.605 E2.12592
G1 X111.108 Y74.805 E2.13420
G1 X111.125 Y75.005 E2.14228
G1 X111.125 Y94.995 E2.94299
G1 X111.108 Y95.195 E2.95106
G1 X111.057 Y95.385 E2.95891
G1 X110.974 Y95.562 E2.96677
G1 X110.862 Y95.723 E2.97462
G1 X110.714 Y95.868 E2.98291
G1 X110.562 Y95.974 E2.99032
G1 X110.395 Y96.053 E2.99774
G1 X110.195 Y96.108 E3.00603
G1 X109.995 Y96.125 E3.01410
G1 X90.005 Y96.125 E3.81481
G1 X89.805 Y96.108 E3.82288
G1 X89.615 Y96.057 E3.83074
G1 X89.438 Y95.974 E3.83859
G1 X89.277 Y95.862 E3.84644
G1 X89.132 Y95.714 E3.85473
G1 X89.026 Y95.562 E3.86215
G1 X88.947 Y95.395 E3.86957
G1 X88.892 Y95.195 E3.87785
G1 X88.875 Y94.995 E3.88592
G1 X88.876 Y74.989 E4.68729
G1 F2400.000 E3.48729
G92 E0
G1 Z1.500 F7800.000
G1 X88.876 Y74.989 F7800.000
G1 E1.20000 F2400.000
G1 X88.892 Y74.805 E1.20742 F1800.000
G1 X88.947 Y74.605 E1.21570
G1 X89.037 Y74.421 E1.22390
G1 X89.138 Y74.277 E1.23097
G1 X89.269 Y74.146 E1.23838
G1 X89.438 Y74.026 E1.24667
G1 X89.615 Y73.943 E1.25452
G1 X89.805 Y73.892 E1.26238
G1 X90.005 Y73.875 E1.27045
G1 X109.995 Y73.875 E2.07116
G1 X110.195 Y73.892 E2.07923
G1 X110.385 Y73.943 E2.08709
G1 X110.562 Y74.026 E2.09494
G1 X110.723 Y74.138 E2.10279
G1 X110.868 Y74.286 E2.11108
G1 X110.974 Y74.438 E2.11850
G1 X111.053 Y74.605 E2.12591
G1 X111.108 Y74.805 E2.13420
G1 X111.125 Y75.005 E2.14227
G1 X111.125 Y94.995 E2.94298
G1 X111.108 Y95.195 E2.95106
G1 X111.057 Y95.385 E2.95891
G1 X110.974 Y95.562 E2.96676
G1 X110.862 Y95.723 E2.97462
G1 X110.714 Y95.868 E2.98290
G1 X110.562 Y95.974 E2.99032
G1 X110.395 Y96.053 E2.99774
G1 X110.195 Y96.108 E3.00602
G1 X109.995 Y96.125 E3.01409
G1 X90.005 Y96.125 E3.81481
G1 X89.805 Y96.108 E3.82288
G1 X89.615 Y96.057 E3.83073
G1 X89.438 Y95.974 E3.83859
G1 X89.277 Y95.862 E3.84644
G1 X89.132 Y95.714 E3.85472
G1 X89.026 Y95.562 E3.86214
G1 X88.947 Y95.395 E3.86956
G1 X88.892 Y95.195 E3.87785
G1 X88.875 Y94.995 E3.88592
G1 X88.876 Y74.989 E4.68728
G1 F2400.000 E3.48728
G92 E0
G1 Z1.700 F7800.000
G1 X88.876 Y74.989 F7800.000
G1 E1.20000 F2400.000
G1 X88.892 Y74.805 E1.20742 F1800.000
G1 X88.953 Y74.594 E1.21622
G1 X89.026 Y74.438 E1.22311
G1 X89.132 Y74.286 E1.23053
G1 X89.269 Y74.146 E1.23838
G1 X89.438 Y74.026 E1.24667
G1 X89.615 Y73.943 E1.25452
G1 X89.805 Y73.892 E1.26237
G1 X90.005 Y73.875 E1.27045
G1 X109.995 Y73.875 E2.07116
G1 X110.195 Y73.892 E2.07923
G1 X110.385 Y73.943 E2.08708
G1 X110.562 Y74.026 E2.09494
G1 X110.723 Y74.138 E2.10279
G1 X110.868 Y74.286 E2.11108
G1 X110.974 Y74.438 E2.11849
G1 X111.053 Y74.605 E2.12591
G1 X111.108 Y74.805 E2.13420
G1 X111.125 Y75.005 E2.14227
G1 X111.125 Y94.995 E2.94298
G1 X111.108 Y95.195 E2.95105
G1 X111.057 Y95.385 E2.95891
G1 X110.974 Y95.562 E2.96676
G1 X110.862 Y95.723 E2.97462
G1 X110.714 Y95.868 E2.98290
G1 X110.562 Y95.974 E2.99032
G1 X110.395 Y96.053 E2.99774
G1 X110.195 Y96.108 E3.00602
G1 X109.995 Y96.125 E3.01409
G1 X90.005 Y96.125 E3.81481
G1 X89.805 Y96.108 E3.82288
G1 X89.615 Y96.057 E3.83073
G1 X89.438 Y95.974 E3.83859
G1 X89.277 Y95.862 E3.84644
G1 X89.132 Y95.714 E3.85472
G1 X89.026 Y95.562 E3.86214
G1 X88.947 Y95.395 E3.86956
G1 X88.892 Y95.195 E3.87785
G1 X88.875 Y94.995 E3.88592
G1 X88.876 Y74.989 E4.68728
G1 F2400.000 E3.48728
G92 E0
G1 Z1.900 F7800.000
G1 X88.876 Y74.989 F7800.000
G1 E1.20000 F2400.000
G1 X88.892 Y74.805 E1.20742 F1800.000
G1 X88.955 Y74.590 E1.21639
G1 X89.026 Y74.438 E1.22311
G1 X89.132 Y74.286 E1.23053
G1 X89.269 Y74.146 E1.23838
G1 X89.438 Y74.026 E1.24666
G1 X89.615 Y73.943 E1.25452
G1 X89.805 Y73.892 E1.26237
G1 X90.005 Y73.875 E1.27044
G1 X109.995 Y73.875 E2.07116
G1 X110.195 Y73.892 E2.07923
G1 X110.385 Y73.943 E2.08708
G1 X110.562 Y74.026 E2.09494
G1 X110.723 Y74.138 E2.10279
G1 X110.868 Y74.286 E2.11107
G1 X110.974 Y74.438 E2.11849
G1 X111.053 Y74.605 E2.12591
G1 X111.108 Y74.805 E2.13419
G1 X111.125 Y75.005 E2.14227
G1 X111.125 Y94.995 E2.94298
G1 X111.108 Y95.195 E2.95105
G1 X111.057 Y95.385 E2.95891
G1 X110.974 Y95.562 E2.96676
G1 X110.862 Y95.723 E2.97461
G1 X110.723 Y95.862 E2.98247
G1 X110.516 Y96.001 E2.99247
G1 X110.195 Y96.108 E3.00600
G1 X109.995 Y96.125 E3.01407
G1 X90.005 Y96.125 E3.81479
G1 X89.805 Y96.108 E3.82286
G1 X89.615 Y96.057 E3.83071
G1 X89.438 Y95.974 E3.83857
G1 X89.277 Y95.862 E3.84642
G1 X89.132 Y95.714 E3.85470
G1 X89.026 Y95.562 E3.86212
G1 X88.947 Y95.395 E3.86954
G1 X88.892 Y95.195 E3.87783
G1 X88.875 Y94.995 E3.88590
G1 X88.876 Y74.989 E4.68726
G1 F2400.000 E3.48726
G92 E0
G1 Z2.100 F7800.000
G1 X88.876 Y74.989 F7800.000
G1 E1.20000 F2400.000
G1 X88.892 Y74.805 E1.20742 F1800.000
G1 X88.947 Y74.605 E1.21570
G1 X89.044 Y74.411 E1.22441
G1 X89.138 Y74.277 E1.23096
G1 X89.269 Y74.146 E1.23838
G1 X89.438 Y74.026 E1.24666
G1 X89.615 Y73.943 E1.25452
G1 X89.805 Y73.892 E1.26237
G1 X90.005 Y73.875 E1.27044
G1 X109.995 Y73.875 E2.07115
G1 X110.195 Y73.892 E2.07923
G1 X110.385 Y73.943 E2.08708
G1 X110.562 Y74.026 E2.09493
G1 X110.723 Y74.138 E2.10279
G1 X110.868 Y74.286 E2.11107
G1 X110.974 Y74.438 E2.11849
G1 X111.053 Y74.605 E2.12591
G1 X111.108 Y74.805 E2.13419
G1 X111.125 Y75.005 E2.14226
G1 X111.125 Y94.988 E2.94270
G1 X111.108 Y95.195 E2.95105
G1 X111.057 Y95.385 E2.95890
G1 X110.974 Y95.562 E2.96676
G1 X110.862 Y95.723 E2.97461
G1 X110.714 Y95.868 E2.98289
G1 X110.562 Y95.974 E2.99031
G1 X110.395 Y96.053 E2.99773
G1 X110.195 Y96.108 E3.00602
G1 X109.995 Y96.125 E3.01409
G1 X90.005 Y96.125 E3.81480
G1 X89.805 Y96.108 E3.82287
G1 X89.615 Y96.057 E3.83073
G1 X89.438 Y95.974 E3.83858
G1 X89.277 Y95.862 E3.84643
G1 X89.132 Y95.714 E3.85472
G1 X89.026 Y95.562 E3.86214
G1 X88.947 Y95.395 E3.86956
G1 X88.892 Y95.195 E3.87784
G1 X88.875 Y94.995 E3.88591
G1 X88.876 Y74.989 E4.68728
G1 F2400.000 E3.48728
G92 E0
G1 Z2.300 F7800.000
G1 X88.876 Y74.989 F7800.000
G1 E1.20000 F2400.000
G1 X88.892 Y74.805 E1.20742 F1800.000
G1 X88.947 Y74.605 E1.21570
G1 X89.047 Y74.407 E1.22459
G1 X89.138 Y74.277 E1.23096
G1 X89.269 Y74.146 E1.23838
G1 X89.438 Y74.026 E1.24666
G1 X89.615 Y73.943 E1.25451
G1 X89.805 Y73.892 E1.26237
G1 X90.005 Y73.875 E1.27044
G1 X109.995 Y73.875 E2.07115
G1 X110.195 Y73.892 E2.07922
G1 X110.385 Y73.943 E2.08708
G1 X110.562 Y74.026 E2.09493
G1 X110.723 Y74.138 E2.10279
G1 X110.868 Y74.286 E2.11107
G1 X110.974 Y74.438 E2.11849
G1 X111.053 Y74.605 E2.12591
G1 X111.108 Y74.805 E2.13419
