; generated by Slic3r 1.2.7-dev on 2015-02-11 at 15:22:04

; external perimeters extrusion width = 0.50mm
; perimeters extrusion width = 0.50mm
; infill extrusion width = 0.50mm
; solid infill extrusion width = 0.50mm
; top infill extrusion width = 0.50mm

M107
M104 S190 ; set temperature
G28 ; home all axes
G1 Z5 F5000 ; lift nozzle

M109 S190 ; wait for temperature to be reached
G21 ; set units to millimeters
G90 ; use absolute coordinates
M82 ; use absolute distances for extrusion
G92 E0
G1 Z0.200 F7800.000
G1 E-2.00000 F2400.00000
G92 E0
G1 X83.063 Y83.063 F7800.000
G1 E2.00000 F2400.00000
G1 X94.813 Y71.313 E2.85557 F2880.000
G1 X96.691 Y69.996 E2.97369
G1 X99.500 Y69.372 E3.12183
G1 X100.500 Y69.372 E3.17332
G1 X102.759 Y69.769 E3.29143
G1 X105.187 Y71.313 E3.43957 F2880.000
G1 X128.687 Y94.813 E5.15072
G1 X130.004 Y96.691 E5.26883
G1 X130.628 Y99.500 E5.41697
G1 X130.628 Y100.500 E5.46846
G1 X130.231 Y102.759 E5.58658
G1 X128.687 Y105.187 E5.73471
G1 X105.187 Y128.687 E7.44586
G1 X103.309 Y130.004 E7.56398
G1 X100.500 Y130.628 E7.71212
G1 X99.500 Y130.628 E7.76360
G1 X97.241 Y130.231 E7.88172
G1 X94.813 Y128.687 E8.02986
G1 X71.313 Y105.187 E9.74101
G1 X69.996 Y103.309 E9.85912
G1 X69.372 Y100.500 E10.00726
G1 X69.372 Y99.500 E10.05875
G1 X69.769 Y97.241 E10.17686
G1 X71.313 Y94.813 E10.32500
G1 X83.021 Y83.105 E11.17749
G1 E9.17749 F2400.00000
G92 E0
G1 X85.623 Y97.785 F7800.000
G1 E2.00000 F2400.00000
G1 X86.000 Y97.753 E2.01418 F2016.000
G1 X86.377 Y97.785 E2.02835
G1 X86.755 Y97.883 E2.04298
G1 X87.099 Y98.040 E2.05715
G1 X87.422 Y98.260 E2.07178
G1 X87.694 Y98.523 E2.08594
G1 X87.924 Y98.838 E2.10057
G1 X88.091 Y99.177 E2.11474
G1 X88.261 Y99.750 E2.13710
G1 X95.219 Y99.750 E2.39773
G1 X95.315 Y99.110 E2.42196
G1 X95.391 Y98.776 E2.43481
G1 X95.488 Y98.456 E2.44734
G1 X95.672 Y97.997 E2.46584
G1 X95.987 Y97.423 E2.49037
G1 X96.164 Y97.168 E2.50199
G1 X96.575 Y96.681 E2.52587
G1 X96.797 Y96.467 E2.53739
G1 X97.294 Y96.074 E2.56114
G1 X97.853 Y95.742 E2.58549
G1 X98.143 Y95.608 E2.59748
G1 X98.613 Y95.437 E2.61619
G1 X99.113 Y95.315 E2.63546
G1 X99.750 Y95.222 E2.65958
G1 X99.750 Y88.261 E2.92032
G1 X99.177 Y88.091 E2.94269
G1 X98.838 Y87.924 E2.95685
G1 X98.523 Y87.694 E2.97148
G1 X98.260 Y87.422 E2.98565
G1 X98.040 Y87.099 E3.00028
G1 X97.883 Y86.755 E3.01444
G1 X97.785 Y86.377 E3.02907
G1 X97.753 Y86.000 E3.04325
G1 X97.785 Y85.623 E3.05743
G1 X97.883 Y85.245 E3.07206
G1 X98.040 Y84.901 E3.08622
G1 X98.260 Y84.578 E3.10085
G1 X98.523 Y84.306 E3.11501
G1 X98.838 Y84.076 E3.12964
G1 X99.177 Y83.909 E3.14381
G1 X99.750 Y83.739 E3.16618
G1 X99.750 Y76.250 E3.44668
G1 X100.250 Y76.250 E3.46541
G1 X100.250 Y83.739 E3.74591
G1 X100.823 Y83.909 E3.76827 F2016.000
G1 X101.162 Y84.076 E3.78244
G1 X101.477 Y84.306 E3.79707
G1 X101.740 Y84.578 E3.81123
G1 X101.960 Y84.901 E3.82586
G1 X102.117 Y85.245 E3.84003
G1 X102.215 Y85.623 E3.85466
G1 X102.247 Y86.000 E3.86883
G1 X102.215 Y86.377 E3.88301
G1 X102.117 Y86.755 E3.89764
G1 X101.960 Y87.099 E3.91181
G1 X101.740 Y87.422 E3.92643
G1 X101.477 Y87.694 E3.94060
G1 X101.162 Y87.924 E3.95523
G1 X100.823 Y88.091 E3.96940
G1 X100.250 Y88.261 E3.99176
G1 X100.250 Y95.222 E4.25250
G1 X100.887 Y95.315 E4.27662
G1 X101.387 Y95.437 E4.29589
G1 X101.857 Y95.608 E4.31461
G1 X102.147 Y95.742 E4.32659
G1 X102.706 Y96.074 E4.35094
G1 X103.203 Y96.467 E4.37470
G1 X103.425 Y96.681 E4.38622
G1 X103.836 Y97.168 E4.41009
G1 X104.014 Y97.426 E4.42184
G1 X104.328 Y97.997 E4.44625
G1 X104.512 Y98.456 E4.46474
G1 X104.609 Y98.776 E4.47728
G1 X104.685 Y99.110 E4.49010
G1 X104.778 Y99.750 E4.51434
G1 X111.739 Y99.750 E4.77507
G1 X111.909 Y99.177 E4.79744
G1 X112.076 Y98.838 E4.81160
G1 X112.309 Y98.519 E4.82642
G1 X112.643 Y98.208 E4.84351
G1 X112.977 Y97.999 E4.85824
G1 X113.338 Y97.852 E4.87286
G1 X113.708 Y97.772 E4.88702
G1 X114.098 Y97.755 E4.90165
G1 X114.473 Y97.803 E4.91582
G1 X114.846 Y97.918 E4.93045
G1 X115.184 Y98.090 E4.94462
G1 X115.489 Y98.317 E4.95889
G1 X115.700 Y98.530 E4.97012
G1 X115.924 Y98.838 E4.98438
G1 X116.091 Y99.177 E4.99856
G1 X116.261 Y99.750 E5.02093
G1 X123.750 Y99.750 E5.30143
G1 X123.750 Y100.250 E5.32016
G1 X116.261 Y100.250 E5.60066
G1 X116.091 Y100.823 E5.62302
G1 X115.924 Y101.162 E5.63719
G1 X115.694 Y101.477 E5.65182
G1 X115.422 Y101.740 E5.66598
G1 X115.099 Y101.960 E5.68061
G1 X114.755 Y102.117 E5.69478
G1 X114.377 Y102.215 E5.70941
G1 X114.000 Y102.247 E5.72358
G1 X113.623 Y102.215 E5.73776
G1 X113.245 Y102.117 E5.75239
G1 X112.901 Y101.960 E5.76656
G1 X112.578 Y101.740 E5.78118
G1 X112.306 Y101.477 E5.79535
G1 X112.076 Y101.162 E5.80998
G1 X111.909 Y100.823 E5.82415
G1 X111.739 Y100.250 E5.84651
G1 X104.781 Y100.250 E6.10714
G1 X104.685 Y100.890 E6.13137
G1 X104.609 Y101.224 E6.14421
G1 X104.512 Y101.544 E6.15675
G1 X104.328 Y102.003 E6.17524
G1 X104.013 Y102.577 E6.19978
G1 X103.836 Y102.832 E6.21140
G1 X103.425 Y103.319 E6.23527
G1 X103.203 Y103.533 E6.24679
G1 X102.706 Y103.926 E6.27055
G1 X102.147 Y104.258 E6.29490
G1 X101.857 Y104.392 E6.30688
G1 X101.387 Y104.563 E6.32560
G1 X100.887 Y104.685 E6.34487
G1 X100.250 Y104.778 E6.36899
G1 X100.250 Y111.739 E6.62973
G1 X100.823 Y111.909 E6.65209
G1 X101.162 Y112.076 E6.66626
G1 X101.481 Y112.309 E6.68108
G1 X101.792 Y112.643 E6.69817
G1 X102.001 Y112.977 E6.71290
G1 X102.148 Y113.338 E6.72752
G1 X102.228 Y113.708 E6.74168
G1 X102.245 Y114.098 E6.75631
G1 X102.197 Y114.473 E6.77048
G1 X102.082 Y114.846 E6.78511
G1 X101.910 Y115.184 E6.79928
G1 X101.683 Y115.489 E6.81355
G1 X101.470 Y115.700 E6.82477
G1 X101.162 Y115.924 E6.83904
G1 X100.823 Y116.091 E6.85322
G1 X100.250 Y116.261 E6.87558
G1 X100.250 Y123.750 E7.15609
G1 X99.750 Y123.750 E7.17481
G1 X99.750 Y116.261 E7.45531
G1 X99.177 Y116.091 E7.47768
G1 X98.838 Y115.924 E7.49185
G1 X98.523 Y115.694 E7.50648
G1 X98.260 Y115.422 E7.52064
G1 X98.040 Y115.099 E7.53527
G1 X97.883 Y114.755 E7.54944
G1 X97.785 Y114.377 E7.56406
G1 X97.753 Y114.000 E7.57824
G1 X97.785 Y113.623 E7.59242
G1 X97.883 Y113.245 E7.60705
G1 X98.040 Y112.901 E7.62121
G1 X98.260 Y112.578 E7.63584
G1 X98.523 Y112.306 E7.65001
G1 X98.838 Y112.076 E7.66464
G1 X99.177 Y111.909 E7.67880
G1 X99.750 Y111.739 E7.70117
G1 X99.750 Y104.778 E7.96191
G1 X99.113 Y104.685 E7.98603
G1 X98.613 Y104.563 E8.00530
G1 X98.143 Y104.392 E8.02401
G1 X97.853 Y104.258 E8.03600
G1 X97.294 Y103.926 E8.06035
G1 X96.797 Y103.533 E8.08411
G1 X96.575 Y103.319 E8.09562
G1 X96.164 Y102.832 E8.11950
G1 X95.987 Y102.577 E8.13112
G1 X95.672 Y102.003 E8.15566
G1 X95.488 Y101.544 E8.17415
G1 X95.391 Y101.224 E8.18669
G1 X95.315 Y100.890 E8.19951
G1 X95.222 Y100.250 E8.22374
G1 X88.261 Y100.250 E8.48448
G1 X88.091 Y100.823 E8.50684
G1 X87.924 Y101.162 E8.52101
G1 X87.691 Y101.481 E8.53583
G1 X87.357 Y101.792 E8.55292
G1 X87.023 Y102.001 E8.56765
G1 X86.662 Y102.148 E8.58227
G1 X86.292 Y102.228 E8.59643
G1 X85.902 Y102.245 E8.61106
G1 X85.527 Y102.197 E8.62523
G1 X85.154 Y102.082 E8.63986
G1 X84.816 Y101.910 E8.65403
G1 X84.511 Y101.683 E8.66830
G1 X84.300 Y101.470 E8.67952
G1 X84.076 Y101.162 E8.69379
G1 X83.909 Y100.823 E8.70797
G1 X83.739 Y100.250 E8.73033
G1 X76.250 Y100.250 E9.01083
G1 X76.250 Y99.750 E9.02956
G1 X83.739 Y99.750 E9.31006
G1 X83.909 Y99.177 E9.33243
G1 X84.076 Y98.838 E9.34660
G1 X84.306 Y98.523 E9.36122
G1 X84.578 Y98.260 E9.37539
G1 X84.901 Y98.040 E9.39002
G1 X85.245 Y97.883 E9.40418
G1 X85.565 Y97.800 E9.41657
G1 X85.999 Y98.027 F7800.000
G1 X88.048 Y100.076 E9.52701 F2688.000
G1 X87.908 Y100.593 E9.54743
G1 X85.407 Y98.093 E9.68219
G1 X84.943 Y98.286 E9.70136
G1 X87.716 Y101.059 E9.85080
G1 X87.412 Y101.413 E9.86858
G1 X84.588 Y98.589 E10.02078
G1 X84.284 Y98.942 E10.03856
G1 X87.054 Y101.712 E10.18785
G1 X86.594 Y101.910 E10.20693
G1 X84.092 Y99.408 E10.34176
G1 X83.952 Y99.927 E10.36221
G1 X86.004 Y101.978 E10.47276
G1 X84.956 Y101.588 F7800.000
G1 X84.410 Y101.042 E10.50221 F2688.000
G1 X87.029 Y98.399 F7800.000
G1 X87.593 Y98.963 E10.53260 F2688.000
G1 E8.53260 F2400.00000
G92 E0
G1 X95.714 Y101.263 F7800.000
G1 E2.00000 F2400.00000
G1 X98.733 Y104.283 E2.16155 F2688.000
G1 X99.572 Y104.469 E2.19406
G1 X95.531 Y100.428 E2.41029
G1 X95.478 Y99.722 E2.43706
G1 X100.275 Y104.519 E2.69371
G1 X100.846 Y104.437 E2.71551
G1 X95.563 Y99.154 E2.99815
G1 X95.688 Y98.626 E3.01866
G1 X101.375 Y104.313 E3.32293
G1 X101.852 Y104.137 E3.34216
G1 X95.865 Y98.150 E3.66249
G1 X96.088 Y97.720 E3.68082
G1 X102.280 Y103.912 E4.01214
G1 X102.680 Y103.659 E4.03004
G1 X96.337 Y97.316 E4.36939
G1 X96.639 Y96.965 E4.38690
G1 X103.035 Y103.361 E4.72913
G1 X103.361 Y103.035 E4.74659
G1 X96.965 Y96.639 E5.08882
G1 X97.320 Y96.341 E5.10635
G1 X103.663 Y102.684 E5.44570
G1 X103.912 Y102.280 E5.46364
G1 X97.720 Y96.088 E5.79497
G1 X98.148 Y95.863 E5.81326
G1 X104.135 Y101.850 E6.13358
G1 X104.312 Y101.374 E6.15280
G1 X98.625 Y95.687 E6.45706
G1 X99.154 Y95.563 E6.47764
G1 X104.437 Y100.846 E6.76027
G1 X104.522 Y100.278 E6.78200
G1 X99.725 Y95.481 E7.03866
G1 X100.428 Y95.531 E7.06532
G1 X104.469 Y99.572 E7.28154
G1 X104.286 Y98.737 E7.31391
G1 X101.267 Y95.717 E7.47546
G1 X102.763 Y96.560 F7800.000
G1 X103.413 Y97.211 E7.51027 F2688.000
G1 X97.237 Y103.440 F7800.000
G1 X96.587 Y102.789 E7.54508 F2688.000
G1 E5.54508 F2400.00000
G92 E0
G1 X112.407 Y101.037 F7800.000
G1 E2.00000 F2400.00000
G1 X112.971 Y101.601 E2.03039 F2688.000
G1 X114.001 Y101.973 F7800.000
G1 X111.952 Y99.924 E2.14083 F2688.000
G1 X112.092 Y99.407 E2.16125
G1 X114.593 Y101.907 E2.29601
G1 X115.057 Y101.714 E2.31518
G1 X112.284 Y98.941 E2.46462
G1 X112.588 Y98.587 E2.48240
G1 X115.412 Y101.411 E2.63460
G1 X115.716 Y101.058 E2.65238
G1 X112.946 Y98.288 E2.80167
G1 X113.406 Y98.090 E2.82075
G1 X115.908 Y100.592 E2.95558
G1 X116.048 Y100.073 E2.97603
G1 X113.996 Y98.022 E3.08658
G1 X115.044 Y98.412 F7800.000
G1 X115.590 Y98.958 E3.11603 F2688.000
G1 E1.11603 F2400.00000
G92 E0
G1 X100.076 Y88.048 F7800.000
G1 E2.00000 F2400.00000
G1 X98.027 Y86.000 E2.11038 F2688.000
G1 X98.093 Y85.408 E2.13307
G1 X100.593 Y87.908 E2.26776
G1 X101.058 Y87.716 E2.28695
G1 X98.286 Y84.943 E2.43633
G1 X98.588 Y84.588 E2.45410
G1 X101.412 Y87.412 E2.60623
G1 X101.714 Y87.057 E2.62400
G1 X98.942 Y84.284 E2.77338
G1 X99.407 Y84.092 E2.79257
G1 X101.907 Y86.592 E2.92726
G1 X101.973 Y86.000 E2.94995
G1 X99.924 Y83.952 E3.06033
G1 X101.037 Y84.407 F7800.000
G1 X101.601 Y84.971 E3.09071 F2688.000
G1 X98.963 Y87.593 F7800.000
G1 X98.399 Y87.029 E3.12109 F2688.000
G1 E1.12109 F2400.00000
G92 E0
G1 X99.924 Y111.952 F7800.000
G1 E2.00000 F2400.00000
G1 X101.971 Y113.999 E2.11028 F2688.000
G1 X101.908 Y114.593 E2.13305
G1 X99.407 Y112.092 E2.26778
G1 X98.942 Y112.284 E2.28697
G1 X101.715 Y115.057 E2.43639
G1 X101.413 Y115.413 E2.45416
G1 X98.588 Y112.588 E2.60636
G1 X98.286 Y112.943 E2.62413
G1 X101.059 Y115.716 E2.77352
G1 X100.593 Y115.908 E2.79271
G1 X98.093 Y113.408 E2.92741
G1 X98.027 Y114.000 E2.95010
G1 X100.076 Y116.048 E3.06049
G1 X98.963 Y115.593 F7800.000
G1 X98.399 Y115.029 E3.09086 F2688.000
G1 X101.038 Y112.408 F7800.000
G1 X101.614 Y112.984 E3.12193 F2688.000
G1 Z0.400 F7800.000
G1 X101.894 Y112.810 F7800.000
G1 X101.993 Y112.969 E3.12897 F2520.000
G1 X102.145 Y113.342 E3.14405
G1 X102.224 Y113.699 E3.15774
G1 X102.242 Y114.101 E3.17282
G1 X102.196 Y114.464 E3.18651
G1 X102.077 Y114.849 E3.20159
G1 X101.912 Y115.175 E3.21531
G1 X101.693 Y115.472 E3.22911
G1 X101.457 Y115.706 E3.24157
G1 X101.159 Y115.922 E3.25536
G1 X100.830 Y116.085 E3.26909
G1 X100.250 Y116.258 E3.29177
G1 X100.250 Y123.750 E3.57239
G1 X99.750 Y123.750 E3.59112
G1 X99.750 Y116.258 E3.87173
G1 X99.170 Y116.085 E3.89441
G1 X98.842 Y115.922 E3.90811
G1 X98.517 Y115.684 E3.92319
G1 X98.263 Y115.421 E3.93688
G1 X98.037 Y115.088 E3.95196
G1 X97.887 Y114.755 E3.96565
G1 X97.786 Y114.365 E3.98074
G1 X97.756 Y114.000 E3.99446
G1 X97.786 Y113.635 E4.00819
G1 X97.887 Y113.245 E4.02327
G1 X98.037 Y112.912 E4.03696
G1 X98.263 Y112.579 E4.05204
G1 X98.517 Y112.316 E4.06573
G1 X98.842 Y112.078 E4.08081
G1 X99.170 Y111.915 E4.09451
G1 X99.750 Y111.742 E4.11719
G1 X99.750 Y104.816 E4.37661
G1 X99.107 Y104.723 E4.40095
G1 X98.600 Y104.598 E4.42050
G1 X98.130 Y104.428 E4.43923
G1 X97.837 Y104.293 E4.45132
G1 X97.267 Y103.954 E4.47614
G1 X96.771 Y103.561 E4.49985
G1 X96.545 Y103.342 E4.51163
G1 X96.334 Y103.109 E4.52342
G1 X95.957 Y102.599 E4.54718
G1 X95.637 Y102.017 E4.57204
G1 X95.453 Y101.559 E4.59055
G1 X95.355 Y101.236 E4.60319
G1 X95.278 Y100.899 E4.61611
G1 X95.184 Y100.250 E4.64069
G1 X88.249 Y100.250 E4.90043
G1 X88.152 Y100.638 E4.91542
G1 X88.061 Y100.888 E4.92537
G1 X87.868 Y101.244 E4.94056
G1 X87.641 Y101.531 E4.95425
G1 X87.341 Y101.799 E4.96933
G1 X87.031 Y101.993 E4.98302
G1 X86.658 Y102.145 E4.99810
G1 X86.301 Y102.224 E5.01179
G1 X85.899 Y102.242 E5.02687
G1 X85.536 Y102.196 E5.04057
G1 X85.151 Y102.077 E5.05565
G1 X84.825 Y101.912 E5.06937
G1 X84.528 Y101.693 E5.08317
G1 X84.294 Y101.457 E5.09562
G1 X84.078 Y101.159 E5.10941
G1 X83.915 Y100.830 E5.12314
G1 X83.742 Y100.250 E5.14583
G1 X76.250 Y100.250 E5.42644
G1 X76.250 Y99.750 E5.44517
G1 X83.742 Y99.750 E5.72578
G1 X83.915 Y99.170 E5.74847
G1 X84.078 Y98.842 E5.76216
G1 X84.316 Y98.517 E5.77725
G1 X84.579 Y98.263 E5.79094
G1 X84.912 Y98.037 E5.80602
G1 X85.245 Y97.887 E5.81971
G1 X85.635 Y97.786 E5.83479
G1 X86.000 Y97.756 E5.84852
G1 X86.365 Y97.786 E5.86224
G1 X86.755 Y97.887 E5.87732
G1 X87.088 Y98.037 E5.89101
G1 X87.421 Y98.263 E5.90610
G1 X87.684 Y98.517 E5.91979
G1 X87.922 Y98.842 E5.93487
G1 X88.085 Y99.170 E5.94856
G1 X88.258 Y99.750 E5.97125
G1 X95.182 Y99.750 E6.23059
G1 X95.239 Y99.302 E6.24751
G1 X95.355 Y98.763 E6.26817
G1 X95.453 Y98.441 E6.28075
G1 X95.637 Y97.983 E6.29926
G1 X95.957 Y97.401 E6.32412
G1 X96.334 Y96.891 E6.34788
G1 X96.545 Y96.658 E6.35967
G1 X96.771 Y96.439 E6.37145
G1 X97.267 Y96.046 E6.39516
G1 X97.837 Y95.707 E6.41998
G1 X98.130 Y95.572 E6.43207
G1 X98.600 Y95.402 E6.45080
G1 X99.107 Y95.277 E6.47035
G1 X99.750 Y95.184 E6.49469
G1 X99.750 Y88.258 E6.75410
G1 X99.170 Y88.085 E6.77679
G1 X98.842 Y87.922 E6.79049
G1 X98.517 Y87.684 E6.80557
G1 X98.263 Y87.421 E6.81926
G1 X98.037 Y87.088 E6.83434
G1 X97.887 Y86.755 E6.84803
G1 X97.786 Y86.365 E6.86311
G1 X97.756 Y86.000 E6.87684
G1 X97.786 Y85.635 E6.89056
G1 X97.887 Y85.245 E6.90564
G1 X98.037 Y84.912 E6.91934
G1 X98.263 Y84.579 E6.93442
G1 X98.517 Y84.316 E6.94811
G1 X98.842 Y84.078 E6.96319
G1 X99.170 Y83.915 E6.97688
G1 X99.750 Y83.742 E6.99957
G1 X99.750 Y76.250 E7.28018
G1 X100.250 Y76.250 E7.29891
G1 X100.250 Y83.742 E7.57953
G1 X100.830 Y83.915 E7.60221 F2520.000
G1 X101.158 Y84.078 E7.61591
G1 X101.483 Y84.316 E7.63099
G1 X101.737 Y84.579 E7.64468
G1 X101.963 Y84.912 E7.65976
G1 X102.113 Y85.245 E7.67345
G1 X102.214 Y85.635 E7.68853
G1 X102.244 Y86.000 E7.70226
G1 X102.214 Y86.365 E7.71598
G1 X102.113 Y86.755 E7.73107
G1 X101.963 Y87.088 E7.74476
G1 X101.737 Y87.421 E7.75984
G1 X101.483 Y87.684 E7.77353
G1 X101.158 Y87.922 E7.78861
G1 X100.830 Y88.085 E7.80231
G1 X100.250 Y88.258 E7.82499
G1 X100.250 Y95.184 E8.08441
G1 X100.893 Y95.277 E8.10875
G1 X101.400 Y95.402 E8.12830
G1 X101.870 Y95.572 E8.14703
G1 X102.163 Y95.707 E8.15912
G1 X102.733 Y96.046 E8.18394
G1 X103.229 Y96.439 E8.20764
G1 X103.452 Y96.655 E8.21927
G1 X103.863 Y97.140 E8.24310
G1 X104.047 Y97.407 E8.25523
G1 X104.363 Y97.983 E8.27983
G1 X104.547 Y98.441 E8.29835
G1 X104.645 Y98.764 E8.31098
G1 X104.722 Y99.101 E8.32390
G1 X104.816 Y99.750 E8.34849
G1 X111.751 Y99.750 E8.60823
G1 X111.848 Y99.362 E8.62322
G1 X111.939 Y99.112 E8.63317
G1 X112.132 Y98.756 E8.64836
G1 X112.359 Y98.469 E8.66205
G1 X112.659 Y98.201 E8.67713
G1 X112.969 Y98.007 E8.69082
G1 X113.342 Y97.855 E8.70590
G1 X113.699 Y97.776 E8.71959
G1 X114.101 Y97.758 E8.73467
G1 X114.464 Y97.804 E8.74836
G1 X114.849 Y97.923 E8.76345
G1 X115.175 Y98.088 E8.77717
G1 X115.472 Y98.307 E8.79097
G1 X115.706 Y98.543 E8.80342
G1 X115.922 Y98.841 E8.81721
G1 X116.085 Y99.170 E8.83094
G1 X116.258 Y99.750 E8.85363
G1 X123.750 Y99.750 E9.13424
G1 X123.750 Y100.250 E9.15297
G1 X116.258 Y100.250 E9.43358
