; generated by Slic3r 1.1.7 on 2015-02-23 at 17:00:56

; perimeters extrusion width = 0.50mm
; infill extrusion width = 0.67mm
; solid infill extrusion width = 0.67mm
; top infill extrusion width = 0.67mm

G21 ; set units to millimeters
M107
M104 S190 ; set temperature
G28 ; home all axes
M109 S190 ; wait for temperature to be reached
G90 ; use absolute coordinates
G92 E0
M82 ; use absolute distances for extrusion
G1 Z0.200 F7800.000
G1 F2400.000 E-1.20000
G92 E0
G1 X73.490 Y45.152 F7800.000
G1 E1.20000 F2400.000
G1 X73.647 Y44.995 E1.20886 F2520.000
G1 X76.259 Y43.411 E1.33125
G1 X86.059 Y40.306 E1.74306
G1 X87.276 Y40.045 E1.79291
G1 X107.409 Y37.730 E2.60469
G1 X108.777 Y37.718 E2.65949
G1 X128.777 Y39.666 E3.46443
G1 X130.961 Y40.277 E3.55527 F2520.000
G1 X132.800 Y41.604 E3.64611
G1 X134.070 Y43.483 E3.73696
G1 X134.623 Y46.359 E3.85430
G1 X132.982 Y87.392 E5.49928
G1 X130.828 Y97.932 E5.93020
G1 X130.801 Y98.018 E5.93383
G1 X129.765 Y100.036 E6.02467
G1 X128.098 Y101.573 E6.11552
G1 X126.514 Y102.306 E6.18544
G1 X125.801 Y102.492 E6.21494
G1 X114.855 Y104.610 E6.66155
G1 X74.855 Y106.128 E8.26501
G1 X72.608 Y105.816 E8.35585
G1 X70.607 Y104.749 E8.44669
G1 X69.096 Y103.058 E8.53753
G1 X68.161 Y100.282 E8.65487
G1 X66.213 Y80.282 E9.45981
G1 X66.225 Y78.914 E9.51461
G1 X68.540 Y58.781 E10.32639
G1 X68.801 Y57.564 E10.37625
G1 X71.906 Y47.764 E10.78805
G1 X73.459 Y45.203 E10.90804
G1 F2400.000 E9.70804
G92 E0
G1 X78.314 Y49.819 F7800.000
G1 E1.20000 F2400.000
G1 X88.009 Y46.746 E1.60740 F2100.000
G1 X88.124 Y46.790 E1.61235
G1 X88.227 Y46.772 E1.61652
G1 X98.251 Y47.668 E2.01967
G1 X108.131 Y44.440 E2.43604
G1 X117.952 Y48.350 E2.85946
G1 X118.196 Y48.384 E2.86932 F2100.000
G1 X118.302 Y48.327 E2.87417
G1 X127.781 Y46.442 E3.26132
G1 X124.747 Y56.018 E3.66372
G1 X124.774 Y56.131 E3.66837
G1 X124.764 Y56.225 E3.67217
G1 X125.644 Y66.062 E4.06778
G1 X125.672 Y66.208 E4.07371
G1 X125.706 Y66.261 E4.07625
G1 X122.565 Y75.874 E4.48134
G1 X122.366 Y76.021 E4.49126
G1 X122.465 Y76.313 E4.50361
G1 X126.357 Y86.088 E4.92506
G1 X124.404 Y95.909 E5.32616
G1 X114.583 Y97.862 E5.72726
G1 X104.808 Y93.970 E6.14871
G1 X104.539 Y93.879 E6.16009
G1 X104.386 Y94.037 E6.16893
G1 X94.730 Y97.192 E6.57585
G1 X94.557 Y97.149 E6.58297
G1 X84.720 Y96.269 E6.97858
G1 X84.638 Y96.278 E6.98190
G1 X84.525 Y96.239 E6.98667
G1 X74.939 Y99.277 E7.38950
G1 X76.819 Y89.821 E7.77569
G1 X76.899 Y89.707 E7.78127
G1 X76.841 Y89.448 E7.79190
G1 X72.973 Y79.731 E8.21085
G1 X76.267 Y69.648 E8.63576
G1 X76.144 Y69.532 E8.64256
G1 X75.267 Y59.732 E9.03669
G1 X75.285 Y59.629 E9.04087
G1 X75.241 Y59.514 E9.04581
G1 X78.296 Y49.876 E9.45081
G1 F2400.000 E8.25081
G92 E0
G1 X73.367 Y79.686 F7800.000
G1 E1.20000 F2400.000
G1 X90.067 Y96.385 E2.44213 F2940.000
G1 X91.047 Y96.473 E2.49391
G1 X73.587 Y79.013 E3.79261
G1 X73.807 Y78.340 E3.82985
G1 X92.027 Y96.561 E5.18513
G1 X93.008 Y96.648 E5.23690
G1 X74.027 Y77.667 E6.64876
G1 X74.246 Y76.994 E6.68599
G1 X93.988 Y96.736 E8.15442
G1 X94.902 Y96.757 E8.20248
G1 X74.466 Y76.321 E9.72250
G1 X74.686 Y75.648 E9.75974
G1 X95.575 Y96.537 E11.31346
G1 X96.248 Y96.317 E11.35069
G1 X74.906 Y74.975 E12.93811
G1 X75.126 Y74.302 E12.97535
G1 X96.921 Y96.097 E14.59647
G1 X97.594 Y95.877 E14.63370
G1 X75.346 Y73.629 E16.28852
G1 X75.566 Y72.956 E16.32575
G1 X98.267 Y95.657 E18.01426
G1 X98.940 Y95.437 E18.05150
G1 X75.786 Y72.283 E19.77371
G1 X76.005 Y71.611 E19.81094
G1 X99.612 Y95.218 E21.56685
G1 X100.285 Y94.998 E21.60408
G1 X76.225 Y70.938 E23.39369
G1 X76.445 Y70.265 E23.43092
G1 X100.958 Y94.778 E25.25423
G1 X101.631 Y94.558 E25.29146
G1 X76.665 Y69.592 E27.14846
G1 X76.408 Y68.442 E27.21042
G1 X102.304 Y94.338 E29.13657
G1 X102.977 Y94.118 E29.17381
G1 X76.321 Y67.462 E31.15653
G1 X76.233 Y66.481 E31.20831
G1 X103.650 Y93.898 E33.24761
G1 X104.276 Y93.632 E33.28341
G1 X76.145 Y65.501 E35.37583
G1 X76.058 Y64.520 E35.42760
G1 X105.325 Y93.787 E37.60450
G1 X106.808 Y94.378 F7800.000
G1 X75.970 Y63.540 E39.89826 F2940.000
G1 X75.882 Y62.559 E39.95003
G1 X108.291 Y94.969 E42.36065
G1 X109.775 Y95.559 F7800.000
G1 X75.795 Y61.579 E44.88814 F2940.000
G1 X75.707 Y60.598 E44.93991
G1 X111.258 Y96.150 E47.58426
G1 X112.742 Y96.741 F7800.000
G1 X75.648 Y59.647 E50.34332 F2940.000
G1 X75.809 Y58.915 E50.38273
G1 X114.225 Y97.331 E53.24015
G1 X115.165 Y97.378 E53.28965
G1 X76.024 Y58.237 E56.20101
G1 X76.239 Y57.559 E56.23841
G1 X115.910 Y97.230 E59.18918
G1 X116.655 Y97.082 E59.22912
G1 X76.454 Y56.881 E62.21930
G1 X76.669 Y56.203 E62.25670
G1 X117.399 Y96.934 E65.28630
G1 X118.144 Y96.786 E65.32623
G1 X76.883 Y55.525 E68.39524
G1 X77.098 Y54.847 E68.43264
G1 X118.889 Y96.638 E71.54106
G1 X119.634 Y96.490 E71.58099
G1 X77.313 Y54.169 E74.72882
G1 X77.528 Y53.491 E74.76623
G1 X120.378 Y96.342 E77.95347
G1 X121.123 Y96.194 E77.99340
G1 X77.743 Y52.814 E81.22005
G1 X77.958 Y52.136 E81.25746
G1 X121.868 Y96.046 E84.52352
G1 X122.613 Y95.898 E84.56346
G1 X78.173 Y51.458 E87.86893
G1 X78.387 Y50.780 E87.90634
G1 X123.357 Y95.749 E91.25122
G1 X124.083 Y95.583 E91.29039
G1 X78.620 Y50.119 E94.67200
G1 X79.283 Y49.890 E94.70892
G1 X124.246 Y94.853 E98.05332
G1 X124.394 Y94.108 E98.09325
G1 X79.961 Y49.675 E101.39824
G1 X80.639 Y49.460 E101.43564
G1 X124.543 Y93.364 E104.70122
G1 X124.691 Y92.619 E104.74115
G1 X81.317 Y49.245 E107.96732
G1 X81.995 Y49.030 E108.00472
G1 X124.839 Y91.874 E111.19147
G1 X124.987 Y91.129 E111.23141
G1 X82.673 Y48.815 E114.37875
G1 X83.351 Y48.601 E114.41615
G1 X125.135 Y90.385 E117.52408
G1 X125.283 Y89.640 E117.56402
G1 X84.029 Y48.386 E120.63254
G1 X84.707 Y48.171 E120.66994
G1 X125.431 Y88.895 E123.69905
G1 X125.579 Y88.151 E123.73898
G1 X85.385 Y47.956 E126.72868
G1 X86.063 Y47.741 E126.76608
G1 X125.727 Y87.406 E129.71636
G1 X125.875 Y86.661 E129.75630
G1 X86.741 Y47.526 E132.66717
G1 X87.419 Y47.312 E132.70458
G1 X125.819 Y85.712 E135.56083
G1 X125.228 Y84.228 F7800.000
G1 X88.151 Y47.151 E138.31865 F2940.000
G1 X89.106 Y47.213 E138.36894
G1 X124.638 Y82.745 E141.01185
G1 X124.047 Y81.262 F7800.000
G1 X90.086 Y47.301 E143.53789 F2940.000
G1 X91.066 Y47.388 E143.58966
G1 X123.456 Y79.778 E145.99885
G1 X122.866 Y78.295 F7800.000
G1 X92.047 Y47.476 E148.29118 F2940.000
G1 X93.027 Y47.563 E148.34295
G1 X122.275 Y76.811 E150.51842
G1 X122.115 Y75.759 E150.57441
G1 X94.008 Y47.651 E152.66507
G1 X94.988 Y47.739 E152.71684
G1 X122.417 Y75.167 E154.75700
G1 X122.637 Y74.494 E154.79424
G1 X95.968 Y47.826 E156.77783
G1 X96.949 Y47.914 E156.82960
G1 X122.856 Y73.821 E158.75662
G1 X123.076 Y73.148 E158.79386
G1 X97.929 Y48.002 E160.66431
G1 X98.716 Y47.896 E160.70607
G1 X123.296 Y72.476 E162.53435
G1 X123.516 Y71.803 E162.57158
G1 X99.389 Y47.676 E164.36616
G1 X100.062 Y47.456 E164.40339
G1 X123.736 Y71.130 E166.16427
G1 X123.956 Y70.457 E166.20151
G1 X100.735 Y47.236 E167.92869
G1 X101.408 Y47.016 E167.96592
G1 X124.176 Y69.784 E169.65941
G1 X124.396 Y69.111 E169.69664
G1 X102.081 Y46.796 E171.35643
G1 X102.754 Y46.576 E171.39366
G1 X124.615 Y68.438 E173.01975
G1 X124.835 Y67.765 E173.05699
G1 X103.427 Y46.356 E174.64938
G1 X104.100 Y46.137 E174.68661
G1 X125.055 Y67.092 E176.24531
G1 X125.275 Y66.419 E176.28254
G1 X104.773 Y45.917 E177.80754
G1 X105.445 Y45.697 E177.84477
G1 X125.230 Y65.481 E179.31635
G1 X125.142 Y64.501 E179.36813
G1 X106.118 Y45.477 E180.78314
G1 X106.791 Y45.257 E180.82037
G1 X125.055 Y63.520 E182.17881
G1 X124.967 Y62.540 E182.23058
G1 X107.464 Y45.037 E183.53244
G1 X108.159 Y44.839 E183.57042
G1 X124.879 Y61.559 E184.81412
G1 X124.792 Y60.579 E184.86589
G1 X109.642 Y45.429 E185.99273
G1 X111.125 Y46.020 F7800.000
G1 X124.704 Y59.598 E187.00270 F2940.000
G1 X124.616 Y58.618 E187.05447
G1 X112.609 Y46.611 E187.94758
G1 X114.092 Y47.201 F7800.000
G1 X124.529 Y57.637 E188.72383 F2940.000
G1 X124.441 Y56.657 E188.77560
G1 X115.576 Y47.792 E189.43498
G1 X117.059 Y48.383 F7800.000
G1 X124.447 Y55.770 E189.98447 F2940.000
G1 X124.662 Y55.092 E190.02188
G1 X118.305 Y48.735 E190.49472
G1 X119.015 Y48.553 E190.53330
G1 X124.877 Y54.414 E190.96927
G1 X125.091 Y53.736 E191.00668
G1 X119.760 Y48.405 E191.40324
G1 X120.505 Y48.257 E191.44318
G1 X125.306 Y53.058 E191.80033
G1 X125.521 Y52.380 E191.83774
G1 X121.249 Y48.109 E192.15548
G1 X121.994 Y47.961 E192.19542
G1 X125.736 Y51.703 E192.47375
G1 X125.951 Y51.025 E192.51115
G1 X122.739 Y47.812 E192.75007
G1 X123.483 Y47.664 E192.79001
G1 X126.166 Y50.347 E192.98951
G1 X126.381 Y49.669 E193.02692
G1 X124.228 Y47.516 E193.18701
G1 X124.973 Y47.368 E193.22695
G1 X126.595 Y48.991 E193.34763
G1 X126.810 Y48.313 E193.38504
G1 X125.718 Y47.220 E193.46631
G1 X126.462 Y47.072 E193.50625
G1 X127.025 Y47.635 E193.54811
G1 X127.240 Y46.957 E193.58551
G1 X127.207 Y46.924 E193.58796
G1 F2400.000 E192.38796
G92 E0
G1 X73.917 Y81.129 F7800.000
G1 E1.20000 F2400.000
G1 X89.086 Y96.298 E2.32828 F2940.000
G1 X88.106 Y96.210 E2.38005
G1 X74.508 Y82.612 E3.39147
G1 X75.098 Y84.096 F7800.000
G1 X87.125 Y96.122 E4.28602 F2940.000
G1 X86.145 Y96.035 E4.33780
G1 X75.689 Y85.579 E5.11549
G1 X76.280 Y87.062 F7800.000
G1 X85.164 Y95.947 E5.77632 F2940.000
G1 X84.267 Y95.943 E5.82351
G1 X76.870 Y88.546 E6.37368
G1 X77.256 Y89.825 E6.44392
G1 X83.589 Y96.157 E6.91497
G1 X82.911 Y96.372 E6.95237
G1 X77.050 Y90.511 E7.38835
G1 X76.902 Y91.256 E7.42828
G1 X82.233 Y96.587 E7.82485
G1 X81.555 Y96.802 E7.86225
G1 X76.754 Y92.000 E8.21941
G1 X76.606 Y92.745 E8.25934
G1 X80.877 Y97.017 E8.57709
G1 X80.199 Y97.232 E8.61449
G1 X76.457 Y93.490 E8.89282
G1 X76.309 Y94.234 E8.93276
G1 X79.521 Y97.447 E9.17168
G1 X78.843 Y97.661 E9.20908
G1 X76.161 Y94.979 E9.40859
G1 X76.013 Y95.724 E9.44852
G1 X78.166 Y97.876 E9.60862
G1 X77.488 Y98.091 E9.64602
G1 X75.865 Y96.469 E9.76671
G1 X75.717 Y97.213 E9.80664
G1 X76.810 Y98.306 E9.88792
G1 X76.132 Y98.521 E9.92532
G1 X75.569 Y97.958 E9.96718
G1 X75.421 Y98.703 E10.00712
G1 X75.454 Y98.736 E10.00957
G1 Z0.400 F7800.000
G1 X75.540 Y99.007 F7800.000
G1 X74.912 Y99.205 E10.03595 F3000.000
G1 X76.761 Y89.906 E10.41574
G1 X76.934 Y89.657 E10.42789
G1 X76.818 Y89.133 E10.44941
G1 X73.034 Y79.628 E10.85923
G1 X73.293 Y79.333 E10.87495
G1 X76.430 Y69.733 E11.27951
G1 X76.164 Y69.484 E11.29409
G1 X76.126 Y69.180 E11.30637
G1 X75.288 Y59.817 E11.68292
G1 X75.329 Y59.579 E11.69257
G1 X75.184 Y59.199 E11.70889
G1 X78.118 Y49.940 E12.09796
G1 X78.435 Y49.623 E12.11589
G1 X87.694 Y46.689 E12.50496
G1 X88.074 Y46.834 E12.52128
G1 X88.312 Y46.793 E12.53093
G1 X98.336 Y47.693 E12.93409
G1 X108.076 Y44.500 E13.34468
G1 X108.193 Y44.567 E13.35007
G1 X117.637 Y48.327 E13.75725 F3000.000
G1 X118.146 Y48.399 E13.77784
G1 X118.387 Y48.269 E13.78881
G1 X127.728 Y46.411 E14.17032
G1 X124.749 Y55.813 E14.56539
G1 X124.818 Y56.099 E14.57719
G1 X124.785 Y56.420 E14.59012
G1 X125.629 Y65.857 E14.96964
G1 X125.691 Y66.176 E14.98264
G1 X125.868 Y66.456 E14.99593
G1 X122.858 Y75.669 E15.38416
G1 X122.426 Y75.989 E15.40573
G1 X122.601 Y76.508 E15.42766
G1 X126.400 Y86.073 E15.83992
G1 X126.286 Y86.349 E15.85188
G1 X124.414 Y95.761 E16.23626
G1 X124.377 Y95.882 E16.24134
G1 X124.256 Y95.919 E16.24642
G1 X114.844 Y97.790 E16.63080
G1 X114.568 Y97.904 E16.64276
G1 X105.003 Y94.106 E17.05502
G1 X104.507 Y93.938 E17.07599
G1 X104.180 Y94.275 E17.09479
G1 X94.924 Y97.300 E17.48486
G1 X94.647 Y97.191 E17.49680
G1 X94.352 Y97.134 E17.50883
G1 X84.915 Y96.290 E17.88835
G1 X84.606 Y96.322 E17.90080
G1 X84.320 Y96.224 E17.91291
G1 X75.597 Y98.988 E18.27947
G1 X75.462 Y98.653 F7800.000
G1 X127.186 Y46.929 E22.12672 F4200.000
G1 X126.124 Y47.098 E22.18325
G1 X75.593 Y97.629 E25.94182
G1 X75.814 Y96.515 F7800.000
G1 X125.010 Y47.319 E29.60105 F4200.000
G1 X123.896 Y47.541 E29.66079
G1 X76.036 Y95.401 E33.22068
G1 X76.258 Y94.287 E33.28042
G1 X122.782 Y47.762 E36.74097
G1 X121.668 Y47.984 E36.80071
G1 X76.479 Y93.173 E40.16192
G1 X76.701 Y92.059 E40.22166
G1 X120.554 Y48.206 E43.48353
G1 X119.440 Y48.427 E43.54327
G1 X76.922 Y90.945 E46.70580
G1 X77.306 Y89.669 E46.77590
G1 X118.204 Y48.771 E49.81790
G1 X117.444 Y48.638 E49.85845
G1 X77.133 Y88.949 E52.85681
G1 X76.879 Y88.311 E52.89295
G1 X116.806 Y48.384 E55.86273
G1 X116.167 Y48.130 E55.89887
G1 X76.625 Y87.672 E58.84007
G1 X76.371 Y87.034 E58.87621
G1 X115.529 Y47.876 E61.78884
G1 X114.891 Y47.621 E61.82498
G1 X76.116 Y86.396 E64.70904
G1 X75.862 Y85.757 E64.74517
G1 X114.252 Y47.367 E67.60065
G1 X113.614 Y47.113 E67.63679
G1 X75.608 Y85.119 E70.46369
G1 X75.354 Y84.481 E70.49983
G1 X112.976 Y46.859 E73.29816
G1 X112.337 Y46.605 E73.33430
G1 X75.100 Y83.842 E76.10405
G1 X74.846 Y83.204 E76.14019
G1 X111.699 Y46.351 E78.88136
G1 X111.061 Y46.096 E78.91750
G1 X74.591 Y82.566 E81.63010
G1 X74.337 Y81.927 E81.66624
G1 X110.422 Y45.842 E84.35027
G1 X109.784 Y45.588 E84.38640
G1 X74.083 Y81.289 E87.04185
G1 X73.829 Y80.651 E87.07799
G1 X109.146 Y45.334 E89.70487
G1 X108.507 Y45.080 E89.74100
G1 X73.575 Y80.012 E92.33930
G1 X73.823 Y78.872 E92.40069
G1 X107.687 Y45.007 E94.91957
G1 X106.360 Y45.442 E94.99306
G1 X74.256 Y77.546 E97.38096
G1 X74.689 Y76.220 E97.45431
G1 X105.032 Y45.877 E99.71122
G1 X103.704 Y46.313 E99.78472
G1 X75.122 Y74.895 E101.91065
G1 X75.556 Y73.569 E101.98400
G1 X102.376 Y46.748 E103.97896
G1 X101.049 Y47.183 E104.05245
G1 X75.989 Y72.243 E105.91642
G1 X76.422 Y70.917 E105.98978
G1 X99.721 Y47.619 E107.72277
G1 X98.393 Y48.054 E107.79626
G1 X76.831 Y69.616 E109.40005
G1 X76.478 Y69.076 E109.43397
G1 X97.568 Y47.986 E111.00265
G1 X96.749 Y47.913 E111.04590
G1 X76.405 Y68.257 E112.55911
G1 X76.332 Y67.437 E112.60237
G1 X95.930 Y47.839 E114.06011
G1 X95.111 Y47.766 E114.10336
G1 X76.259 Y66.618 E115.50563
G1 X76.185 Y65.799 E115.54889
G1 X94.292 Y47.692 E116.89569
G1 X93.473 Y47.619 E116.93894
G1 X76.112 Y64.980 E118.23028
G1 X76.039 Y64.160 E118.27354
G1 X92.654 Y47.545 E119.50940
G1 X91.835 Y47.472 E119.55265
G1 X75.966 Y63.341 E120.73304
G1 X75.892 Y62.522 E120.77630
G1 X91.016 Y47.398 E121.90122
G1 X90.197 Y47.325 E121.94447
G1 X75.819 Y61.703 E123.01393
G1 X75.746 Y60.883 E123.05719
G1 X89.378 Y47.251 E124.07117
G1 X88.559 Y47.178 E124.11442
G1 X75.673 Y60.064 E125.07293
G1 X75.591 Y59.253 E125.11579
G1 X87.748 Y47.096 E126.02007
G1 X86.509 Y47.443 E126.08778
G1 X75.938 Y58.014 E126.87403
G1 X76.352 Y56.707 E126.94612
G1 X85.202 Y47.857 E127.60439
G1 X83.895 Y48.271 E127.67648
G1 X76.766 Y55.400 E128.20676
G1 X77.180 Y54.094 E128.27885
G1 X82.589 Y48.685 E128.68115
G1 X81.282 Y49.099 E128.75324
G1 X77.594 Y52.787 E129.02755
G1 X78.008 Y51.481 E129.09964
G1 X79.976 Y49.513 E129.24597
G1 X78.669 Y49.927 E129.31806
G1 X78.423 Y50.174 E129.33640
G1 F2400.000 E128.13640
G92 E0
G1 X76.769 Y98.239 F7800.000
G1 E1.20000 F2400.000
G1 X126.772 Y48.236 E4.91926 F4200.000
G1 X126.358 Y49.542 E4.99135
G1 X78.075 Y97.825 E8.58263
G1 X79.382 Y97.411 E8.65472
G1 X125.944 Y50.849 E12.11802
G1 X125.529 Y52.155 E12.19010
G1 X80.688 Y96.996 E15.52541
G1 X81.995 Y96.582 E15.59750
G1 X125.115 Y53.462 E18.80482
G1 X124.701 Y54.769 E18.87691
G1 X83.302 Y96.168 E21.95625
G1 X84.469 Y95.894 E22.01932
G1 X124.411 Y55.951 E24.99025
G1 X124.457 Y56.798 E25.03485
G1 X85.293 Y95.962 E27.94790
G1 X86.112 Y96.035 E27.99116
G1 X124.530 Y57.617 E30.84872
G1 X124.604 Y58.436 E30.89198
G1 X86.932 Y96.108 E33.69406
G1 X87.751 Y96.182 E33.73732
G1 X124.677 Y59.256 E36.48390
G1 X124.750 Y60.075 E36.52717
G1 X88.570 Y96.255 E39.21826
G1 X89.389 Y96.328 E39.26152
G1 X124.823 Y60.894 E41.89713
G1 X124.897 Y61.714 E41.94039
G1 X90.209 Y96.402 E44.52052
G1 X91.028 Y96.475 E44.56378
G1 X124.970 Y62.533 E47.08841
G1 X125.043 Y63.352 E47.13167
G1 X91.847 Y96.548 E49.60081
G1 X92.666 Y96.621 E49.64408
G1 X125.116 Y64.171 E52.05773
G1 X125.190 Y64.991 E52.10099
G1 X93.486 Y96.695 E54.45916
G1 X94.305 Y96.768 E54.50242
G1 X125.263 Y65.810 E56.80510
G1 X125.468 Y66.497 E56.84283
G1 X95.103 Y96.862 E59.10140
G1 X96.429 Y96.429 E59.17475
G1 X125.046 Y67.812 E61.30334
G1 X124.613 Y69.137 E61.37669
G1 X97.754 Y95.996 E63.37445
G1 X99.080 Y95.563 E63.44781
G1 X124.180 Y70.463 E65.31474
G1 X123.747 Y71.789 E65.38810
G1 X100.406 Y95.130 E67.12421
