;Generated with Cura_SteamEngine 13.12
M140 S60.000000
M109 T0 S210.000000
T0
M190 S60.000000
;Sliced at: Tue 24-02-2015 12:38:06
;Basic settings: Layer height: 0.2 Walls: 0.8 Fill: 20
;Print time: #P_TIME#
;Filament used: #F_AMNT#m #F_WGHT#g
;Filament cost: #F_COST#
;M190 S60 ;Uncomment to add your own bed temperature line
;M109 S210 ;Uncomment to add your own temperature line
G21        ;metric values
G90        ;absolute positioning
M107       ;start with the fan off
G28 X0 Y0  ;move X/Y to min endstops
G28 Z0     ;move Z to min endstops
G1 Z15.0 F10800 ;move the platform down 15mm
G92 E0                  ;zero the extruded length
G1 F200 E3              ;extrude 3mm of feed stock
G92 E0                  ;zero the extruded length again
G1 F10800
;Put printing message on LCD screen
M117 Printing...

;Layer count: 500
;LAYER:0
M107
G0 F10800 X71.78 Y54.61 Z0.20
;TYPE:SKIRT
G1 F3600 E0.00000
G1 X73.03 Y53.18 E0.12631
G1 X74.37 Y52.02 E0.24456
G1 X74.68 Y51.80 E0.26986
G1 X76.24 Y50.83 E0.39219
G1 X80.12 Y49.05 E0.67594
G1 X80.66 Y48.89 E0.71358
G1 X84.09 Y47.68 E0.95498
G1 X88.03 Y46.72 E1.22507
G1 X92.31 Y46.12 E1.51229
G1 X92.83 Y46.11 E1.54735
G1 X93.01 Y46.12 E1.55887
G1 X96.67 Y45.94 E1.80313
G1 X97.06 Y45.98 E1.82870
G1 X100.68 Y46.17 E2.06987
G1 X104.74 Y46.78 E2.34345
G1 X108.94 Y47.84 E2.63172
G1 X112.80 Y49.22 E2.90371
G1 X113.24 Y49.42 E2.93622
G1 X113.44 Y49.54 E2.95185
G1 X116.81 Y51.12 E3.19898
G1 X117.30 Y51.45 E3.23885
G1 X120.43 Y53.31 E3.48070
G1 X123.91 Y55.91 E3.76977
G1 X124.22 Y56.23 E3.79926
G1 X126.96 Y58.68 E4.04408
G1 X127.38 Y59.18 E4.08710
G1 X129.80 Y61.82 E4.32518
G1 X131.49 Y64.21 E4.52021
G1 X132.84 Y66.86 E4.71795
G1 X133.80 Y69.77 E4.92162
G1 X134.34 Y72.86 E5.13060
G1 X134.33 Y73.23 E5.15516
G1 X134.40 Y75.73 E5.32166
G1 X134.01 Y78.80 E5.52750
G1 X133.22 Y81.65 E5.72380
G1 X132.04 Y84.29 E5.91612
G1 X131.80 Y84.70 E5.94804
G1 X131.68 Y84.87 E5.96178
G1 X130.36 Y86.96 E6.12628
G1 X128.45 Y89.17 E6.32048
G1 X128.16 Y89.43 E6.34648
G1 X126.06 Y91.21 E6.52971
G1 X123.55 Y92.79 E6.72666
G1 X120.75 Y94.01 E6.93030
G1 X117.82 Y94.80 E7.13195
G1 X114.83 Y95.14 E7.33195
G1 X114.47 Y95.12 E7.35592
G1 X114.48 Y95.47 E7.37935
G1 X114.40 Y95.90 E7.40793
G1 X114.11 Y98.38 E7.57425
G1 X113.28 Y101.39 E7.78186
G1 X113.08 Y101.77 E7.81046
G1 X112.08 Y104.05 E7.97583
G1 X110.49 Y106.56 E8.17347
G1 X108.47 Y108.89 E8.37860
G1 X106.23 Y110.82 E8.57548
G1 X103.61 Y112.46 E8.78122
G1 X100.90 Y113.65 E8.97813
G1 X97.81 Y114.49 E9.19124
G1 X97.44 Y114.51 E9.21589
G1 X94.99 Y114.80 E9.37997
G1 X92.03 Y114.72 E9.57682
G1 X89.00 Y114.18 E9.78184
G1 X86.01 Y113.16 E9.99197
G1 X85.63 Y112.94 E10.02107
G1 X83.42 Y111.81 E10.18642
G1 X83.09 Y111.57 E10.21347
G1 X82.90 Y111.42 E10.22952
G1 X80.90 Y109.99 E10.39277
G1 X80.66 Y109.75 E10.41545
G1 X77.75 Y107.04 E10.68021
G1 X77.48 Y106.69 E10.70957
G1 X75.03 Y103.95 E10.95420
G1 X74.84 Y103.67 E10.97614
G1 X72.65 Y100.69 E11.22233
G1 X72.39 Y100.21 E11.25877
G1 X70.51 Y97.05 E11.50351
G1 X68.69 Y93.12 E11.79161
G1 X67.33 Y89.25 E12.06429
G1 X66.34 Y85.27 E12.33742
G1 X65.71 Y80.98 E12.62568
G1 X65.51 Y76.90 E12.89741
G1 X65.53 Y76.42 E12.92949
G1 X65.55 Y76.17 E12.94628
G1 X65.72 Y72.55 E13.18715
G1 X66.37 Y68.27 E13.47482
G1 X67.36 Y64.30 E13.74680
G1 X67.59 Y63.70 E13.79001
G1 X67.62 Y63.62 E13.79534
G1 X68.81 Y60.25 E14.03334
G1 X70.64 Y56.37 E14.31909
G1 X71.52 Y54.97 E14.42886
G1 X71.78 Y54.61 E14.45818
G1 F3600 E13.25818
G0 F10800 X74.75 Y56.98
;TYPE:WALL-OUTER
G1 F3600 E14.45818
G1 X75.71 Y55.88 E14.55592
G1 X76.73 Y55.00 E14.64521
G1 X78.05 Y54.18 E14.74857
G1 X81.44 Y52.62 E14.99720
G1 X81.82 Y52.51 E15.02341
G1 X85.16 Y51.33 E15.25890
G1 X88.75 Y50.46 E15.50474
G1 X92.61 Y49.91 E15.76367
G1 X92.79 Y49.91 E15.77558
G1 X93.02 Y49.92 E15.79089
G1 X96.56 Y49.75 E16.02663
G1 X96.76 Y49.77 E16.03995
G1 X100.29 Y49.95 E16.27526
G1 X104.00 Y50.51 E16.52455
G1 X107.83 Y51.48 E16.78799
G1 X111.37 Y52.74 E17.03758
G1 X114.92 Y54.43 E17.29927
G1 X115.27 Y54.66 E17.32711
G1 X118.32 Y56.48 E17.56284
G1 X121.40 Y58.77 E17.81840
G1 X124.22 Y61.33 E18.07200
G1 X126.83 Y64.20 E18.33025
G1 X128.23 Y66.18 E18.49110
G1 X129.32 Y68.33 E18.65150
G1 X130.11 Y70.70 E18.81754
G1 X130.53 Y73.14 E18.98264
G1 X130.53 Y73.25 E18.98949
G1 X130.59 Y75.55 E19.14255
G1 X130.27 Y78.06 E19.31084
G1 X129.63 Y80.36 E19.46958
G1 X128.61 Y82.64 E19.63606
G1 X127.30 Y84.69 E19.79771
G1 X125.73 Y86.50 E19.95743
G1 X123.81 Y88.14 E20.12565
G1 X121.78 Y89.42 E20.28494
G1 X119.48 Y90.42 E20.45135
G1 X117.10 Y91.05 E20.61524
G1 X114.70 Y91.33 E20.77641
G1 X112.08 Y91.23 E20.95068
G1 X111.54 Y91.34 E20.98698
G1 X111.45 Y91.34 E20.99324
G1 X111.29 Y91.42 E21.00526
G1 X110.74 Y91.96 E21.05648
G1 X110.61 Y92.68 E21.10478
G1 X110.60 Y92.84 E21.11550
G1 X110.67 Y95.17 E21.27084
G1 X110.37 Y97.65 E21.43663
G1 X109.72 Y99.99 E21.59839
G1 X108.72 Y102.26 E21.76340
G1 X107.43 Y104.29 E21.92309
G1 X105.78 Y106.19 E22.09064
G1 X103.97 Y107.75 E22.24988
G1 X101.83 Y109.10 E22.41802
G1 X99.63 Y110.06 E22.57750
G1 X97.21 Y110.71 E22.74472
G1 X97.10 Y110.72 E22.75171
G1 X94.81 Y111.00 E22.90495
G1 X92.42 Y110.93 E23.06426
G1 X89.95 Y110.49 E23.23123
G1 X87.60 Y109.69 E23.39638
G1 X87.46 Y109.61 E23.40702
G1 X85.41 Y108.56 E23.56012
G1 X83.40 Y107.11 E23.72517
G1 X80.57 Y104.47 E23.98229
G1 X80.40 Y104.25 E24.00065
G1 X78.04 Y101.61 E24.23652
G1 X77.96 Y101.49 E24.24616
G1 X75.86 Y98.64 E24.48160
G1 X73.87 Y95.27 E24.74194
G1 X72.21 Y91.68 E25.00490
G1 X70.97 Y88.16 E25.25345
G1 X70.07 Y84.54 E25.50163
G1 X69.50 Y80.61 E25.76549
G1 X69.31 Y76.87 E26.01471
G1 X69.32 Y76.68 E26.02729
G1 X69.34 Y76.46 E26.04180
G1 X69.51 Y72.91 E26.27820
G1 X70.10 Y69.02 E26.54032
G1 X70.99 Y65.45 E26.78515
G1 X71.15 Y65.05 E26.81383
G1 X72.33 Y61.70 E27.04971
G1 X73.99 Y58.19 E27.30832
G1 X74.75 Y56.98 E27.40297
G0 F10800 X74.86 Y57.33
;TYPE:FILL
G1 F4800 X110.32 Y92.78 E30.73855
G0 F10800 X110.49 Y91.82
G1 F4800 X75.37 Y56.70 E34.04247
G0 F10800 X75.89 Y56.09
G1 F4800 X111.05 Y91.25 E37.34992
G0 F10800 X111.91 Y90.98
G1 F4800 X76.50 Y55.57 E40.68117
G0 F10800 X77.14 Y55.08
G1 F4800 X113.05 Y90.99 E44.05955
G0 F10800 X114.22 Y91.03
G1 F4800 X77.83 Y54.64 E47.48281
G0 F10800 X78.57 Y54.25
G1 F4800 X115.30 Y90.98 E50.93823
G0 F10800 X116.32 Y90.86
G1 F4800 X79.34 Y53.89 E54.41619
G0 F10800 X80.12 Y53.53
G1 F4800 X117.30 Y90.71 E57.91348
G0 F10800 X118.19 Y90.47
G1 F4800 X80.89 Y53.18 E61.42192
G0 F10800 X81.69 Y52.84
G1 F4800 X119.08 Y90.23 E64.93972
G0 F10800 X119.91 Y89.92
G1 F4800 X82.54 Y52.56 E68.45521
G0 F10800 X83.37 Y52.26
G1 F4800 X120.69 Y89.58 E71.96614
G0 F10800 X121.48 Y89.24
G1 F4800 X84.21 Y51.97 E75.47242
G0 F10800 X85.05 Y51.67
G1 F4800 X122.19 Y88.82 E78.96717
G0 F10800 X122.89 Y88.38
G1 F4800 X85.94 Y51.43 E82.44334
G0 F10800 X86.85 Y51.21
G1 F4800 X123.59 Y87.95 E85.89928
G0 F10800 X124.20 Y87.43
G1 F4800 X87.76 Y50.99 E89.32762
G0 F10800 X88.67 Y50.77
G1 F4800 X124.81 Y86.91 E92.72782
G0 F10800 X125.42 Y86.39
G1 F4800 X89.65 Y50.62 E96.09341
G0 F10800 X90.64 Y50.48
G1 F4800 X125.96 Y85.80 E99.41662
G0 F10800 X126.49 Y85.19
G1 F4800 X91.63 Y50.33 E102.69612
G0 F10800 X92.62 Y50.19
G1 F4800 X127.02 Y84.59 E105.93175
G0 F10800 X127.47 Y83.91
G1 F4800 X93.72 Y50.16 E109.10604
G0 F10800 X94.80 Y50.12
G1 F4800 X127.91 Y83.22 E112.22012
G0 F10800 X128.35 Y82.53
G1 F4800 X95.89 Y50.06 E115.27399
G0 F10800 X97.02 Y50.07
G1 F4800 X128.70 Y81.75 E118.25425
G0 F10800 X129.05 Y80.97
G1 F4800 X98.21 Y50.13 E121.15535
G0 F10800 X99.40 Y50.19
G1 F4800 X129.39 Y80.18 E123.97648
G0 F10800 X129.64 Y79.29
G1 F4800 X100.63 Y50.29 E126.70490
G0 F10800 X101.97 Y50.49
G1 F4800 X129.88 Y78.41 E129.33126
G0 F10800 X130.06 Y77.45
G1 F4800 X103.30 Y50.69 E131.84943
G0 F10800 X104.72 Y50.98
G1 F4800 X130.19 Y76.45 E134.24540
G0 F10800 X130.30 Y75.43
G1 F4800 X106.24 Y51.37 E136.50938
G0 F10800 X106.18 Y51.58
G0 X107.69 Y51.96
G0 X107.76 Y51.75
G1 F4800 X130.27 Y74.27 E138.62764
G0 F10800 X130.24 Y73.10
G1 F4800 X109.52 Y52.38 E140.57685
G0 F10800 X109.44 Y52.59
G0 X111.19 Y53.21
G0 X111.28 Y53.01
G1 F4800 X130.00 Y71.73 E142.33810
G0 F10800 X129.67 Y70.28
G1 F4800 X113.43 Y54.03 E143.86624
G0 F10800 X113.33 Y54.23
G0 X115.77 Y55.54
G0 X115.88 Y55.36
G1 F4800 X129.10 Y68.58 E145.10999
G0 F10800 X128.90 Y68.64
G0 X127.80 Y66.44
G0 X127.98 Y66.33
G1 F4800 X118.98 Y57.32 E145.95712
G0 F10800 X118.85 Y57.49
G0 X110.00 Y92.83
G0 X110.13 Y93.95
G0 X110.35 Y93.94
G1 F4800 X74.42 Y58.02 E149.33696
G0 F10800 X74.03 Y58.75
G1 F4800 X110.39 Y95.11 E152.75749
G0 F10800 X110.27 Y96.13
G1 F4800 X73.66 Y59.52 E156.20125
G0 F10800 X73.30 Y60.29
G1 F4800 X110.15 Y97.14 E159.66759
G0 F10800 X109.96 Y98.08
G1 F4800 X72.94 Y61.06 E163.15020
G0 F10800 X72.58 Y61.83
G1 F4800 X109.71 Y98.96 E166.64382
G0 F10800 X109.47 Y99.85
G1 F4800 X72.28 Y62.66 E170.14210
G0 F10800 X71.99 Y63.50
G1 F4800 X109.13 Y100.64 E173.63586
G0 F10800 X108.78 Y101.42
G1 F4800 X71.69 Y64.34 E177.12469
G0 F10800 X71.40 Y65.17
G1 F4800 X108.42 Y102.20 E180.60773
G0 F10800 X107.98 Y102.89
G1 F4800 X71.13 Y66.04 E184.07491
G0 F10800 X70.90 Y66.94
G1 F4800 X107.55 Y103.58 E187.52197
G0 F10800 X107.09 Y104.26
G1 F4800 X70.68 Y67.85 E190.94720
G0 F10800 X70.45 Y68.75
G1 F4800 X106.56 Y104.86 E194.34420
G0 F10800 X106.04 Y105.47
G1 F4800 X70.28 Y69.71 E197.70838
G0 F10800 X70.13 Y70.69
G1 F4800 X105.50 Y106.07 E201.03596
G0 F10800 X104.89 Y106.59
G1 F4800 X69.98 Y71.67 E204.32036
G0 F10800 X69.83 Y72.66
G1 F4800 X104.28 Y107.11 E207.56163
G0 F10800 X103.66 Y107.62
G1 F4800 X69.75 Y73.71 E210.75130
G0 F10800 X69.70 Y74.79
G1 F4800 X102.96 Y108.05 E213.88029
G0 F10800 X102.27 Y108.49
G1 F4800 X69.65 Y75.87 E216.94860
G0 F10800 X69.60 Y76.95
G1 F4800 X101.55 Y108.91 E219.95473
G0 F10800 X100.77 Y109.25
G1 F4800 X69.66 Y78.14 E222.88156
G0 F10800 X69.71 Y79.33
G1 F4800 X99.98 Y109.60 E225.72899
G0 F10800 X99.15 Y109.90
G1 F4800 X69.77 Y80.52 E228.49269
G0 F10800 X69.96 Y81.84
G1 F4800 X98.26 Y110.14 E231.15507
G0 F10800 X97.37 Y110.38
G1 F4800 X70.15 Y83.16 E233.71539
G0 F10800 X70.35 Y84.49
G1 F4800 X96.38 Y110.52 E236.16451
G0 F10800 X95.37 Y110.64
G1 F4800 X70.72 Y85.99 E238.48338
G0 F10800 X70.93 Y85.94
G0 X71.31 Y87.45
G0 X71.09 Y87.50
G1 F4800 X94.29 Y110.70 E240.66594
G0 F10800 X93.13 Y110.67
G1 F4800 X71.62 Y89.15 E242.68975
G0 F10800 X71.83 Y89.08
G0 X72.44 Y90.83
G0 X72.23 Y90.90
G1 F4800 X91.88 Y110.55 E244.53797
G0 F10800 X90.50 Y110.30
G1 F4800 X73.07 Y92.87 E246.17806
G0 F10800 X73.27 Y92.78
G0 X74.24 Y94.88
G0 X74.04 Y94.97
G1 F4800 X88.90 Y109.83 E247.57633
G0 F10800 X88.97 Y109.63
G0 X87.08 Y108.85
G0 X86.98 Y109.05
G1 F4800 X75.62 Y97.68 E248.64576
G0 F10800 X75.81 Y97.56
G0 X78.52 Y101.41
G0 X78.36 Y101.55
G1 F4800 X84.01 Y107.20 E249.17718
G0 F10800 X84.14 Y107.02
G0 X85.01 Y105.80
;LAYER:1
M106 S127
G0 X85.67 Y103.86 Z0.40
;TYPE:WALL-INNER
G1 F3600 X83.56 Y101.92 E249.36765
G1 X83.12 Y101.41 E249.41241
G1 X82.80 Y100.97 E249.44865
G1 X80.88 Y98.84 E249.63962
G1 X79.14 Y96.43 E249.83731
G1 X78.74 Y95.69 E249.89311
G1 X77.37 Y93.39 E250.07139
G1 X76.96 Y92.36 E250.14490
G1 X75.82 Y89.94 E250.32277
G1 X75.69 Y89.50 E250.35306
G1 X74.76 Y86.88 E250.53857
G1 X74.01 Y83.81 E250.74829
G1 X73.90 Y82.83 E250.81436
G1 X73.48 Y80.06 E251.00018
G1 X73.34 Y76.93 E251.20887
G1 X73.36 Y76.58 E251.23230
G1 X73.42 Y75.95 E251.27458
G1 X73.55 Y73.20 E251.45731
G1 X73.76 Y72.27 E251.52094
G1 X74.15 Y69.53 E251.70504
G1 X74.89 Y66.60 E251.90579
G1 X75.28 Y65.66 E251.97397
G1 X76.20 Y63.03 E252.15887
G1 X76.78 Y61.93 E252.24159
G1 X77.78 Y59.79 E252.39891
G1 X78.18 Y59.17 E252.44819
G1 X78.71 Y58.56 E252.50200
G1 X79.34 Y58.02 E252.55715
G1 X80.14 Y57.53 E252.61951
G1 X82.76 Y56.32 E252.81145
G1 X83.41 Y56.10 E252.85722
G1 X83.94 Y55.97 E252.89292
G1 X86.56 Y55.05 E253.07783
G1 X89.72 Y54.30 E253.29425
G1 X90.37 Y54.25 E253.33752
G1 X93.08 Y53.85 E253.51982
G1 X93.34 Y53.85 E253.53705
G1 X94.06 Y53.88 E253.58459
G1 X96.80 Y53.75 E253.76712
G1 X97.25 Y53.80 E253.79729
G1 X100.03 Y53.94 E253.98251
G1 X103.11 Y54.41 E254.18966
G1 X106.80 Y55.36 E254.44335
G1 X109.74 Y56.42 E254.65127
G1 X113.06 Y58.02 E254.89592
G1 X113.97 Y58.64 E254.96979
G1 X116.37 Y60.06 E255.15485
G1 X118.71 Y61.81 E255.34952
G1 X119.44 Y62.54 E255.41806
G1 X121.51 Y64.39 E255.60262
G1 X122.31 Y65.36 E255.68589
G1 X123.78 Y66.96 E255.83070
G1 X124.90 Y68.55 E255.96028
G1 X125.67 Y70.08 E256.07442
G1 X126.26 Y71.89 E256.20108
G1 X126.28 Y72.15 E256.21790
G1 X126.58 Y73.84 E256.33207
G1 X126.58 Y73.90 E256.33647
G1 X126.63 Y75.56 E256.44640
G1 X126.56 Y75.86 E256.46730
G1 X126.34 Y77.64 E256.58638
G1 X125.89 Y79.25 E256.69787
G1 X125.17 Y80.87 E256.81571
G1 X124.08 Y82.55 E256.94904
G1 X122.96 Y83.84 E257.06258
G1 X121.38 Y85.17 E257.20014
G1 X119.95 Y86.06 E257.31189
G1 X119.79 Y86.12 E257.32361
G1 X118.20 Y86.82 E257.43894
G1 X116.30 Y87.32 E257.56940
G1 X114.56 Y87.52 E257.68585
G1 X111.63 Y87.38 E257.88116
G1 X111.04 Y87.50 E257.92140
G1 X110.34 Y87.52 E257.96752
G1 X108.73 Y88.28 E258.08640
G1 X106.85 Y90.21 E258.26572
G1 X106.45 Y92.34 E258.40972
G1 X106.40 Y93.17 E258.46483
G1 X106.46 Y94.92 E258.58130
G1 X106.42 Y95.13 E258.59561
G1 X106.21 Y96.86 E258.71122
G1 X105.73 Y98.60 E258.83180
G1 X105.65 Y98.73 E258.84179
G1 X104.90 Y100.46 E258.96716
G1 X104.03 Y101.82 E259.07431
G1 X103.84 Y101.99 E259.09158
G1 X102.62 Y103.42 E259.21626
G1 X101.34 Y104.50 E259.32776
G1 X99.83 Y105.46 E259.44692
G1 X99.78 Y105.49 E259.45085
G1 X98.03 Y106.24 E259.57727
G1 X96.34 Y106.70 E259.69405
G1 X96.06 Y106.72 E259.71230
G1 X94.33 Y106.93 E259.82849
G1 X92.62 Y106.88 E259.94229
G1 X92.38 Y106.82 E259.95900
G1 X90.69 Y106.52 E260.07304
G1 X88.95 Y105.91 E260.19543
G1 X87.23 Y105.01 E260.32483
G1 X86.76 Y104.64 E260.36442
G1 X85.67 Y103.86 E260.45378
G0 F10800 X85.04 Y104.37
G1 F3600 X83.00 Y102.49 E260.63876
G1 X82.49 Y101.90 E260.69040
G1 X82.18 Y101.48 E260.72527
G1 X80.25 Y99.34 E260.91672
G1 X78.47 Y96.88 E261.11865
G1 X78.04 Y96.08 E261.17907
G1 X76.65 Y93.74 E261.36018
G1 X76.22 Y92.68 E261.43599
G1 X75.07 Y90.22 E261.61671
G1 X73.99 Y87.11 E261.83554
G1 X73.22 Y83.97 E262.05052
G1 X73.10 Y82.92 E262.12090
G1 X72.69 Y80.14 E262.30800
G1 X72.54 Y76.92 E262.52222
G1 X72.56 Y76.54 E262.54805
G1 X72.62 Y75.89 E262.59160
G1 X72.75 Y73.11 E262.77633
G1 X72.81 Y72.80 E262.79738
G1 X72.97 Y72.12 E262.84394
G1 X73.37 Y69.36 E263.02967
G1 X74.13 Y66.35 E263.23559
G1 X74.54 Y65.36 E263.30747
G1 X75.47 Y62.72 E263.49343
G1 X76.06 Y61.58 E263.57906
G1 X77.07 Y59.41 E263.73819
G1 X77.41 Y58.87 E263.78024
G1 X77.55 Y58.68 E263.79647
G1 X78.17 Y57.96 E263.85927
G1 X78.89 Y57.35 E263.92184
G1 X79.78 Y56.81 E263.99161
G1 X82.46 Y55.57 E264.18787
G1 X83.19 Y55.33 E264.23860
G1 X83.71 Y55.20 E264.27411
G1 X86.35 Y54.27 E264.46037
G1 X86.67 Y54.21 E264.48239
G1 X89.39 Y53.54 E264.66851
G1 X93.03 Y53.05 E264.91256
G1 X93.34 Y53.05 E264.93379
G1 X94.06 Y53.08 E264.98112
G1 X96.82 Y52.95 E265.16532
G1 X100.11 Y53.14 E265.38481
G1 X103.27 Y53.62 E265.59707
G1 X107.03 Y54.60 E265.85549
G1 X110.05 Y55.69 E266.06909
G1 X113.45 Y57.32 E266.32032
G1 X114.40 Y57.96 E266.39655
G1 X116.81 Y59.39 E266.58273
G1 X119.23 Y61.20 E266.78335
G1 X119.72 Y61.66 E266.82810
G1 X120.00 Y61.97 E266.85620
G1 X122.09 Y63.84 E267.04265
G1 X122.91 Y64.83 E267.12795
G1 X124.42 Y66.48 E267.27696
G1 X125.59 Y68.14 E267.41188
G1 X126.42 Y69.80 E267.53542
G1 X127.05 Y71.73 E267.67050
G1 X127.08 Y72.05 E267.69165
G1 X127.38 Y73.77 E267.80827
G1 X127.38 Y73.90 E267.81671
G1 X127.43 Y75.63 E267.93210
G1 X127.35 Y76.00 E267.95680
G1 X127.13 Y77.80 E268.07782
G1 X126.64 Y79.52 E268.19673
G1 X125.86 Y81.28 E268.32457
G1 X125.67 Y81.54 E268.34639
G1 X124.72 Y83.03 E268.46387
G1 X123.51 Y84.43 E268.58722
G1 X123.26 Y84.61 E268.60735
G1 X121.85 Y85.82 E268.73085
G1 X120.30 Y86.79 E268.85240
G1 X120.08 Y86.87 E268.86793
G1 X118.45 Y87.58 E268.98612
G1 X116.45 Y88.11 E269.12391
G1 X114.59 Y88.32 E269.24859
G1 X111.69 Y88.18 E269.44178
G1 X111.12 Y88.29 E269.48025
G1 X110.53 Y88.31 E269.51925
G1 X109.20 Y88.94 E269.61748
G1 X107.59 Y90.60 E269.77102
G1 X107.25 Y92.44 E269.89566
